;FLAVOR:Marlin
;TIME:3511
;Filament used: 7.43092m
;Layer height: 0.32
;MINX:91.038
;MINY:74.63
;MINZ:0.28
;MAXX:183.735
;MAXY:167.328
;MAXZ:16.88
;TARGET_MACHINE.NAME:VORON2 250
;Generated with Cura_SteamEngine 5.6.0
M140 S60
M105
M190 S60
M104 S220
M105
M109 S220
M82 ;absolute extrusion mode
START_PRINT
G92 E0
G92 E0
G1 F300 E-0.5
;LAYER_COUNT:52
;LAYER:0
M107
M204 S2000
G1 F600 Z0.56
G0 F6000 X102.796 Y90.08 Z0.56
;TYPE:SKIRT
G1 F600 Z0.28
G1 F120 E0
G1 F1800 X102.975 Y89.88 E0.01875
G1 X103.806 Y89.014 E0.10258
G1 X105.972 Y86.857 E0.31609
G1 X106.172 Y86.672 E0.33511
G1 X107.2 Y85.793 E0.42959
G1 X109.074 Y84.257 E0.59883
G1 X109.715 Y83.756 E0.65565
G1 X110.748 Y83.036 E0.7436
G1 X113.252 Y81.372 E0.95359
G1 X113.486 Y81.229 E0.97275
G1 X114.562 Y80.625 E1.05893
G1 X117.245 Y79.199 E1.27115
G1 X117.493 Y79.078 E1.29043
G1 X118.609 Y78.589 E1.37553
G1 X120.964 Y77.615 E1.55353
G1 X121.663 Y77.343 E1.60592
G1 X122.885 Y76.944 E1.69571
G1 X125.311 Y76.209 E1.87276
G1 X126.038 Y76.008 E1.92544
G1 X127.349 Y75.719 E2.01921
G1 X129.742 Y75.243 E2.18963
G1 X130.511 Y75.109 E2.24415
G1 X131.743 Y74.962 E2.33081
G1 X134.762 Y74.672 E2.54264
G1 X135.029 Y74.657 E2.56132
G1 X136.348 Y74.63 E2.65347
G1 X139.32 Y74.637 E2.86105
G1 X139.591 Y74.649 E2.88
G1 X140.812 Y74.744 E2.96554
G1 X143.856 Y75.052 E3.17924
G1 X144.125 Y75.089 E3.1982
G1 X145.325 Y75.303 E3.28334
G1 X148.33 Y75.907 E3.49743
G1 X148.598 Y75.972 E3.51669
G1 X149.832 Y76.32 E3.60624
G1 X152.217 Y77.044 E3.78033
G1 X152.924 Y77.277 E3.83232
G1 X154.13 Y77.747 E3.92273
G1 X156.398 Y78.686 E4.09418
G1 X157.127 Y79.009 E4.14987
G1 X158.324 Y79.617 E4.24365
G1 X160.464 Y80.761 E4.41313
G1 X161.145 Y81.145 E4.46774
G1 X162.28 Y81.87 E4.56181
G1 X164.327 Y83.238 E4.73377
G1 X164.933 Y83.664 E4.78551
G1 X165.992 Y84.497 E4.87962
G1 X167.899 Y86.062 E5.05193
G1 X168.459 Y86.543 E5.10349
G1 X169.364 Y87.411 E5.19107
G1 X171.509 Y89.565 E5.4034
G1 X171.694 Y89.765 E5.42243
G1 X172.573 Y90.793 E5.5169
G1 X174.108 Y92.666 E5.68604
G1 X174.615 Y93.315 E5.74356
G1 X175.315 Y94.319 E5.82905
G1 X176.988 Y96.835 E6.04009
G1 X177.131 Y97.069 E6.05924
G1 X177.771 Y98.211 E6.15068
G1 X178.938 Y100.394 E6.32357
G1 X179.292 Y101.097 E6.37855
G1 X179.797 Y102.251 E6.46653
G1 X180.935 Y105.017 E6.67544
G1 X181.029 Y105.272 E6.69442
G1 X181.43 Y106.506 E6.78505
G1 X182.135 Y108.831 E6.95474
G1 X182.362 Y109.648 E7.01397
G1 X182.645 Y110.932 E7.1058
G1 X183.123 Y113.336 E7.277
G1 X183.255 Y114.096 E7.33088
G1 X183.412 Y115.424 E7.42428
G1 X183.653 Y117.867 E7.59574
G1 X183.699 Y118.43 E7.6352
G1 X183.735 Y119.92 E7.7393
G1 X183.728 Y122.905 E7.94779
G1 X183.716 Y123.176 E7.96674
G1 X183.612 Y124.504 E8.05978
G1 X183.373 Y126.932 E8.23018
G1 X183.276 Y127.723 E8.28585
G1 X183.047 Y129.002 E8.3766
G1 X182.576 Y131.372 E8.54537
G1 X182.401 Y132.162 E8.60189
G1 X182.041 Y133.435 E8.69429
G1 X181.319 Y135.817 E8.86814
G1 X181.088 Y136.517 E8.91962
G1 X180.617 Y137.726 E9.01025
G1 X179.467 Y140.485 E9.21903
G1 X179.353 Y140.73 E9.2379
G1 X178.737 Y141.941 E9.3328
G1 X177.605 Y144.057 E9.50041
G1 X177.204 Y144.769 E9.55749
G1 X176.543 Y145.803 E9.64321
G1 X174.858 Y148.314 E9.85442
G1 X174.697 Y148.534 E9.87346
G1 X173.847 Y149.613 E9.9694
G1 X172.3 Y151.495 E10.13956
G1 X171.813 Y152.062 E10.19177
G1 X170.985 Y152.926 E10.27535
G1 X168.789 Y155.113 E10.49182
G1 X168.588 Y155.299 E10.51095
G1 X167.667 Y156.087 E10.59561
G1 X165.677 Y157.721 E10.77546
G1 X165.075 Y158.19 E10.82876
G1 X163.988 Y158.949 E10.92136
G1 X161.521 Y160.588 E11.12823
G1 X161.287 Y160.731 E11.14738
G1 X160.153 Y161.365 E11.23813
G1 X157.97 Y162.532 E11.41102
G1 X157.282 Y162.878 E11.46481
G1 X156.081 Y163.403 E11.55636
G1 X153.852 Y164.326 E11.72487
G1 X153.064 Y164.631 E11.78389
G1 X151.874 Y165.019 E11.87131
G1 X149.426 Y165.761 E12.04998
G1 X148.747 Y165.948 E12.09917
G1 X147.423 Y166.24 E12.19387
G1 X145.029 Y166.716 E12.36435
G1 X144.259 Y166.85 E12.41894
G1 X143.036 Y166.996 E12.50497
G1 X140.492 Y167.245 E12.68351
G1 X139.727 Y167.302 E12.73709
G1 X138.443 Y167.328 E12.82679
G1 X135.456 Y167.321 E13.03542
G1 X135.186 Y167.309 E13.0543
G1 X133.866 Y167.206 E13.14678
G1 X131.461 Y166.969 E13.31557
G1 X130.655 Y166.871 E13.37228
G1 X129.333 Y166.634 E13.46609
G1 X126.458 Y166.055 E13.67093
G1 X126.192 Y165.99 E13.69005
G1 X124.9 Y165.626 E13.78381
G1 X122.088 Y164.765 E13.98922
G1 X121.836 Y164.677 E14.00786
G1 X120.628 Y164.206 E14.09842
G1 X118.346 Y163.261 E14.27094
G1 X117.646 Y162.951 E14.32441
G1 X116.445 Y162.341 E14.41849
G1 X114.309 Y161.199 E14.58767
G1 X113.631 Y160.817 E14.64203
G1 X112.485 Y160.086 E14.73697
G1 X110.449 Y158.723 E14.9081
G1 X109.809 Y158.272 E14.96278
G1 X108.783 Y157.464 E15.054
G1 X106.909 Y155.927 E15.22329
G1 X106.312 Y155.414 E15.27826
G1 X105.409 Y154.548 E15.36565
G1 X103.263 Y152.393 E15.57807
G1 X103.078 Y152.193 E15.5971
G1 X102.2 Y151.166 E15.69148
G1 X100.692 Y149.327 E15.85759
G1 X100.17 Y148.659 E15.9168
G1 X99.424 Y147.59 E16.00785
G1 X97.788 Y145.129 E16.21426
G1 X97.646 Y144.896 E16.23332
G1 X96.983 Y143.711 E16.32816
G1 X95.835 Y141.564 E16.49821
G1 X95.48 Y140.859 E16.55334
G1 X94.976 Y139.707 E16.64117
G1 X93.836 Y136.937 E16.85039
G1 X93.743 Y136.682 E16.86934
G1 X93.345 Y135.461 E16.95904
G1 X92.615 Y133.052 E17.13486
G1 X92.413 Y132.32 E17.1879
G1 X92.13 Y131.041 E17.27939
G1 X91.658 Y128.661 E17.44886
G1 X91.516 Y127.851 E17.5063
G1 X91.369 Y126.615 E17.59324
G1 X91.121 Y124.087 E17.77066
G1 X91.064 Y123.323 E17.82417
G1 X91.038 Y122.037 E17.91401
G1 X91.045 Y119.048 E18.12278
G1 X91.057 Y118.777 E18.14173
G1 X91.153 Y117.542 E18.22825
G1 X91.459 Y114.515 E18.44075
G1 X91.496 Y114.246 E18.45972
G1 X91.729 Y112.944 E18.5521
G1 X92.315 Y110.036 E18.7593
G1 X92.379 Y109.772 E18.77827
G1 X92.735 Y108.512 E18.86972
G1 X93.459 Y106.125 E19.04394
G1 X93.692 Y105.423 E19.09561
G1 X94.156 Y104.235 E19.18469
G1 X95.131 Y101.877 E19.36291
G1 X95.413 Y101.24 E19.41157
G1 X95.999 Y100.087 E19.5019
G1 X97.188 Y97.863 E19.67805
G1 X97.568 Y97.193 E19.73185
G1 X98.259 Y96.113 E19.8214
G1 X99.922 Y93.636 E20.02978
G1 X100.082 Y93.417 E20.04873
G1 X100.905 Y92.371 E20.14169
G1 X102.796 Y90.08 E20.34918
G0 F6000 X103.244 Y90.479
G1 F1800 X103.408 Y90.295 E20.36639
G1 X104.229 Y89.439 E20.44924
G1 X106.38 Y87.297 E20.66126
G1 X106.562 Y87.128 E20.67861
G1 X107.58 Y86.257 E20.77219
G1 X109.444 Y84.729 E20.94053
G1 X110.058 Y84.248 E20.99501
G1 X111.08 Y83.536 E21.08201
G1 X113.566 Y81.883 E21.29053
G1 X113.779 Y81.752 E21.308
G1 X114.844 Y81.155 E21.39327
G1 X117.508 Y79.738 E21.60403
G1 X117.734 Y79.628 E21.62158
G1 X118.85 Y79.139 E21.70669
G1 X121.182 Y78.174 E21.88296
G1 X121.881 Y77.902 E21.93535
G1 X123.059 Y77.518 E22.02189
G1 X125.471 Y76.787 E22.19793
G1 X126.167 Y76.594 E22.24837
G1 X127.466 Y76.307 E22.34129
G1 X129.845 Y75.834 E22.51071
G1 X130.582 Y75.705 E22.56297
G1 X131.8 Y75.559 E22.64865
G1 X134.796 Y75.271 E22.85887
G1 X135.041 Y75.257 E22.87601
G1 X136.347 Y75.23 E22.96725
G1 X139.296 Y75.237 E23.17323
G1 X139.544 Y75.247 E23.19057
G1 X140.752 Y75.341 E23.2752
G1 X143.774 Y75.646 E23.48734
G1 X144.02 Y75.68 E23.50469
G1 X145.207 Y75.891 E23.5889
G1 X148.19 Y76.49 E23.80141
G1 X148.435 Y76.549 E23.81901
G1 X149.658 Y76.894 E23.90776
G1 X152.029 Y77.614 E24.08084
G1 X152.736 Y77.847 E24.13283
G1 X153.9 Y78.301 E24.2201
G1 X156.155 Y79.235 E24.39058
G1 X156.884 Y79.558 E24.44627
G1 X158.041 Y80.146 E24.53692
G1 X160.169 Y81.284 E24.70547
G1 X160.85 Y81.668 E24.76008
G1 X161.947 Y82.369 E24.85101
G1 X163.982 Y83.729 E25.02196
G1 X164.588 Y84.155 E25.0737
G1 X165.611 Y84.961 E25.16467
G1 X167.508 Y86.517 E25.33604
G1 X168.068 Y86.998 E25.3876
G1 X168.939 Y87.834 E25.47192
G1 X171.069 Y89.973 E25.68276
G1 X171.238 Y90.155 E25.70011
G1 X172.109 Y91.173 E25.79369
G1 X173.636 Y93.036 E25.96194
G1 X174.123 Y93.658 E26.01711
G1 X174.815 Y94.651 E26.10165
G1 X176.477 Y97.149 E26.31121
G1 X176.608 Y97.362 E26.32868
G1 X177.242 Y98.494 E26.4193
G1 X178.402 Y100.665 E26.59123
G1 X178.742 Y101.338 E26.64389
G1 X179.242 Y102.479 E26.7309
G1 X180.372 Y105.224 E26.93824
G1 X180.458 Y105.458 E26.95565
G1 X180.856 Y106.68 E27.04542
G1 X181.557 Y108.992 E27.21416
G1 X181.776 Y109.778 E27.27115
G1 X182.057 Y111.049 E27.36207
G1 X182.532 Y113.439 E27.53227
G1 X182.659 Y114.167 E27.58388
G1 X182.815 Y115.483 E27.67645
G1 X183.055 Y117.917 E27.84728
G1 X183.099 Y118.445 E27.88428
G1 X183.135 Y119.919 E27.98727
G1 X183.128 Y122.881 E28.19415
G1 X183.118 Y123.129 E28.21149
G1 X183.015 Y124.445 E28.30369
G1 X182.777 Y126.86 E28.47318
G1 X182.685 Y127.618 E28.52652
G1 X182.459 Y128.885 E28.61641
G1 X181.99 Y131.242 E28.78426
G1 X181.815 Y132.032 E28.84078
G1 X181.467 Y133.261 E28.92999
G1 X180.749 Y135.629 E29.10283
G1 X180.518 Y136.329 E29.15431
G1 X180.063 Y137.495 E29.24173
G1 X178.922 Y140.233 E29.44891
G1 X178.818 Y140.458 E29.46623
G1 X178.208 Y141.658 E29.56025
G1 X177.082 Y143.763 E29.72699
G1 X176.698 Y144.446 E29.78172
G1 X176.045 Y145.469 E29.86649
G1 X174.373 Y147.961 E30.07609
G1 X174.226 Y148.163 E30.09354
G1 X173.384 Y149.232 E30.18859
G1 X171.845 Y151.104 E30.35785
G1 X171.358 Y151.671 E30.41006
G1 X170.562 Y152.501 E30.49038
G1 X168.381 Y154.673 E30.70537
G1 X168.198 Y154.843 E30.72282
G1 X167.286 Y155.623 E30.80664
G1 X165.308 Y157.248 E30.98544
G1 X164.732 Y157.698 E31.03649
G1 X163.656 Y158.449 E31.12814
G1 X161.208 Y160.076 E31.33344
G1 X160.994 Y160.207 E31.35097
G1 X159.87 Y160.836 E31.44093
G1 X157.7 Y161.996 E31.6128
G1 X157.042 Y162.328 E31.66427
G1 X155.851 Y162.849 E31.75507
G1 X153.635 Y163.767 E31.92261
G1 X152.878 Y164.061 E31.97933
G1 X151.7 Y164.445 E32.06587
G1 X149.266 Y165.183 E32.24352
G1 X148.617 Y165.362 E32.29054
G1 X147.306 Y165.652 E32.38432
G1 X144.926 Y166.125 E32.55381
G1 X144.188 Y166.254 E32.60613
G1 X142.977 Y166.399 E32.69132
G1 X140.447 Y166.647 E32.86888
G1 X139.715 Y166.702 E32.92015
G1 X138.444 Y166.728 E33.00894
G1 X135.48 Y166.721 E33.21597
G1 X135.233 Y166.711 E33.23324
G1 X133.925 Y166.609 E33.32487
G1 X131.533 Y166.373 E33.49276
G1 X130.761 Y166.28 E33.54707
G1 X129.451 Y166.046 E33.64001
G1 X126.599 Y165.472 E33.84321
G1 X126.355 Y165.413 E33.86074
G1 X125.075 Y165.052 E33.95363
G1 X122.286 Y164.199 E34.15734
G1 X122.054 Y164.118 E34.17451
G1 X120.858 Y163.652 E34.26416
G1 X118.589 Y162.712 E34.4357
G1 X117.889 Y162.402 E34.48917
G1 X116.728 Y161.812 E34.58014
G1 X114.604 Y160.676 E34.74838
G1 X113.926 Y160.294 E34.80273
G1 X112.819 Y159.587 E34.89447
G1 X110.794 Y158.232 E35.06466
G1 X110.18 Y157.8 E35.11709
G1 X109.163 Y157 E35.20747
G1 X107.3 Y155.472 E35.37576
G1 X106.703 Y154.959 E35.43074
G1 X105.834 Y154.125 E35.51487
G1 X103.703 Y151.985 E35.72581
G1 X103.534 Y151.803 E35.74316
G1 X102.664 Y150.786 E35.83663
G1 X101.164 Y148.957 E36.00185
G1 X100.662 Y148.316 E36.05872
G1 X99.924 Y147.258 E36.14882
G1 X98.3 Y144.816 E36.35366
G1 X98.17 Y144.603 E36.37108
G1 X97.512 Y143.428 E36.46515
G1 X96.371 Y141.293 E36.63423
G1 X96.03 Y140.618 E36.68705
G1 X95.531 Y139.479 E36.7739
G1 X94.399 Y136.729 E36.98162
G1 X94.313 Y136.496 E36.99896
G1 X93.919 Y135.287 E37.08778
G1 X93.193 Y132.892 E37.26258
G1 X92.999 Y132.191 E37.31338
G1 X92.719 Y130.924 E37.40401
G1 X92.249 Y128.557 E37.57257
G1 X92.112 Y127.78 E37.62767
G1 X91.966 Y126.556 E37.71377
G1 X91.719 Y124.042 E37.89021
G1 X91.664 Y123.311 E37.94141
G1 X91.638 Y122.038 E38.03035
G1 X91.645 Y119.072 E38.23751
G1 X91.655 Y118.824 E38.25485
G1 X91.75 Y117.602 E38.34046
G1 X92.053 Y114.597 E38.55141
G1 X92.087 Y114.351 E38.56875
G1 X92.317 Y113.062 E38.66021
G1 X92.898 Y110.178 E38.86569
G1 X92.957 Y109.935 E38.88316
G1 X93.309 Y108.686 E38.97379
G1 X94.029 Y106.313 E39.147
G1 X94.251 Y105.641 E39.19643
G1 X94.71 Y104.464 E39.28467
G1 X95.68 Y102.12 E39.46185
G1 X95.962 Y101.483 E39.51051
G1 X96.528 Y100.37 E39.59773
G1 X97.71 Y98.159 E39.77284
G1 X98.074 Y97.516 E39.82445
G1 X98.757 Y96.447 E39.91305
G1 X100.407 Y93.989 E40.11983
G1 X100.553 Y93.788 E40.13718
G1 X101.368 Y92.753 E40.22919
G1 X103.244 Y90.479 E40.4351
G1 F300 E39.9351
G1 F600 Z0.56
;MESH:FS_Center_Cap.3mf
G0 F6000 X139.448 Y163.128 Z0.56
;TYPE:WALL-OUTER
G1 F600 Z0.28
G1 F120 E40.4351
G1 F1800 X135.322 Y163.128 E40.72328
G1 X131.195 Y162.721 E41.01294
G1 X127.127 Y161.911 E41.30265
G1 X123.179 Y160.714 E41.5908
G1 X119.337 Y159.124 E41.88122
G1 X115.685 Y157.171 E42.17048
G1 X112.242 Y154.87 E42.45972
G1 X109.04 Y152.242 E42.74905
G1 X106.122 Y149.324 E43.03728
G1 X103.493 Y146.118 E43.32687
G1 X101.19 Y142.672 E43.61637
G1 X99.24 Y139.02 E43.90553
G1 X97.651 Y135.187 E44.19534
G1 X96.453 Y131.234 E44.48385
G1 X95.644 Y127.166 E44.77355
G1 X95.238 Y123.042 E45.06299
G1 X95.238 Y118.915 E45.35124
G1 X95.644 Y114.795 E45.6404
G1 X96.455 Y110.72 E45.93061
G1 X97.653 Y106.769 E46.21898
G1 X99.242 Y102.931 E46.50911
G1 X101.195 Y99.278 E46.79844
G1 X103.496 Y95.834 E47.08774
G1 X106.124 Y92.633 E47.37701
G1 X109.042 Y89.715 E47.66524
G1 X112.244 Y87.088 E47.95453
G1 X115.687 Y84.788 E48.24373
G1 X119.339 Y82.834 E48.53303
G1 X123.179 Y81.244 E48.82332
G1 X127.128 Y80.047 E49.11154
G1 X131.198 Y79.238 E49.40137
G1 X135.325 Y78.831 E49.69103
G1 X139.451 Y78.831 E49.97921
G1 X143.578 Y79.239 E50.26887
G1 X147.648 Y80.047 E50.55869
G1 X151.596 Y81.245 E50.84686
G1 X155.436 Y82.836 E51.13718
G1 X159.088 Y84.789 E51.42645
G1 X162.53 Y87.089 E51.71559
G1 X165.733 Y89.717 E52.00497
G1 X168.651 Y92.635 E52.29321
G1 X171.278 Y95.837 E52.58249
G1 X173.579 Y99.28 E52.87173
G1 X175.531 Y102.932 E53.16096
G1 X177.122 Y106.771 E53.45122
G1 X178.319 Y110.721 E53.7395
G1 X179.128 Y114.783 E54.02879
G1 X179.535 Y118.917 E54.31893
G1 X179.535 Y123.044 E54.60718
G1 X179.129 Y127.165 E54.89641
G1 X178.318 Y131.239 E55.18655
G1 X177.12 Y135.189 E55.47485
G1 X175.533 Y139.023 E55.76468
G1 X173.582 Y142.675 E56.05387
G1 X171.278 Y146.123 E56.34352
G1 X168.65 Y149.324 E56.6328
G1 X165.731 Y152.243 E56.92113
G1 X162.53 Y154.872 E57.21045
G1 X159.086 Y157.172 E57.49971
G1 X155.434 Y159.124 E57.78894
G1 X151.592 Y160.714 E58.07936
G1 X147.644 Y161.912 E58.36753
G1 X143.575 Y162.721 E58.6573
G1 X139.448 Y163.128 E58.94695
G0 F6000 X139.647 Y163.109
G0 X139.412 Y162.558
;TYPE:SKIN
G1 F1800 X135.358 Y162.558 E59.23011
G1 X131.281 Y162.155 E59.51626
G1 X127.261 Y161.355 E59.80255
G1 X123.381 Y160.178 E60.08575
G1 X119.575 Y158.604 E60.37342
G1 X115.973 Y156.677 E60.65874
G1 X112.576 Y154.408 E60.94407
G1 X109.418 Y151.814 E61.22952
G1 X106.55 Y148.946 E61.51281
G1 X103.955 Y145.781 E61.79868
G1 X101.68 Y142.378 E62.08459
G1 X99.758 Y138.776 E62.36975
G1 X98.187 Y134.987 E62.65625
G1 X97.009 Y131.1 E62.93993
G1 X96.208 Y127.074 E63.22664
G1 X95.808 Y123.006 E63.51215
G1 X95.808 Y118.951 E63.79538
G1 X96.208 Y114.887 E64.0806
G1 X97.011 Y110.854 E64.36782
G1 X98.189 Y106.969 E64.65138
G1 X99.762 Y103.169 E64.93863
G1 X101.689 Y99.566 E65.22402
G1 X103.958 Y96.168 E65.50941
G1 X106.552 Y93.011 E65.7948
G1 X109.42 Y90.143 E66.07809
G1 X112.579 Y87.55 E66.36355
G1 X115.975 Y85.282 E66.64878
G1 X119.577 Y83.354 E66.93414
G1 X123.379 Y81.78 E67.22155
G1 X127.261 Y80.603 E67.50489
G1 X131.284 Y79.804 E67.79137
G1 X135.361 Y79.402 E68.07751
G1 X139.415 Y79.402 E68.36067
G1 X143.492 Y79.805 E68.64682
G1 X147.515 Y80.603 E68.93328
G1 X151.396 Y81.781 E69.21657
G1 X155.198 Y83.356 E69.50401
G1 X158.8 Y85.283 E69.78934
G1 X162.196 Y87.551 E70.07457
G1 X165.355 Y90.145 E70.36007
G1 X168.223 Y93.013 E70.64336
G1 X170.816 Y96.171 E70.92876
G1 X173.085 Y99.568 E71.21409
G1 X175.011 Y103.17 E71.49939
G1 X176.586 Y106.971 E71.78676
G1 X177.763 Y110.855 E72.07023
G1 X178.562 Y114.861 E72.35554
G1 X178.965 Y118.953 E72.64274
G1 X178.965 Y123.008 E72.92596
G1 X178.565 Y127.073 E73.21126
G1 X177.762 Y131.105 E73.49841
G1 X176.584 Y134.989 E73.7819
G1 X175.015 Y138.779 E74.0684
G1 X173.092 Y142.381 E74.3536
G1 X170.816 Y145.787 E74.63972
G1 X168.222 Y148.946 E74.92522
G1 X165.353 Y151.815 E75.20861
G1 X162.196 Y154.41 E75.49405
G1 X158.798 Y156.678 E75.7794
G1 X155.196 Y158.604 E76.06469
G1 X151.39 Y160.178 E76.35236
G1 X147.51 Y161.356 E76.63558
