;FLAVOR:Marlin
;TIME:1334
;Filament used: 2.11512m
;Layer height: 0.32
;MINX:112.379
;MINY:78.009
;MINZ:0.28
;MAXX:137.621
;MAXY:171.989
;MAXZ:20.4
;TARGET_MACHINE.NAME:VORON2 250
;Generated with Cura_SteamEngine 5.6.0
M140 S60
M105
M190 S60
M104 S220
M105
M109 S220
M82 ;absolute extrusion mode
START_PRINT
G92 E0
G92 E0
G1 F300 E-0.5
;LAYER_COUNT:63
;LAYER:0
M107
M204 S2000
G1 F600 Z0.56
G0 F6000 X113.241 Y80.772 Z0.56
;TYPE:SKIRT
G1 F600 Z0.28
G1 F120 E0
G1 F1800 X113.73 Y80.196 E0.05277
G1 X114.275 Y79.749 E0.10201
G1 X114.865 Y79.384 E0.15046
G1 X115.579 Y79.104 E0.20403
G1 X115.936 Y79.011 E0.2298
G1 X116.899 Y78.818 E0.2984
G1 X118.475 Y78.547 E0.41009
G1 X119.687 Y78.379 E0.49556
G1 X120.607 Y78.269 E0.56027
G1 X121.921 Y78.152 E0.65241
G1 X122.978 Y78.078 E0.72642
G1 X124.161 Y78.032 E0.80911
G1 X125.253 Y78.009 E0.8854
G1 X126.457 Y78.02 E0.9695
G1 X127.517 Y78.048 E1.04356
G1 X128.626 Y78.112 E1.12115
G1 X129.737 Y78.194 E1.19896
G1 X130.978 Y78.325 E1.28612
G1 X131.975 Y78.448 E1.35629
G1 X133.153 Y78.628 E1.43952
G1 X133.861 Y78.748 E1.48968
G1 X134.549 Y78.918 E1.53918
G1 X135.266 Y79.238 E1.59402
G1 X135.782 Y79.559 E1.63646
G1 X136.242 Y79.957 E1.67895
G1 X136.767 Y80.553 E1.73442
G1 X137.164 Y81.238 E1.78972
G1 X137.398 Y81.805 E1.83257
G1 X137.565 Y82.567 E1.88705
G1 X137.61 Y83.118 E1.92567
G1 X137.621 Y83.839 E1.97603
G1 X137.621 Y166.147 E7.72494
G1 X137.608 Y166.926 E7.77936
G1 X137.528 Y167.664 E7.83121
G1 X137.375 Y168.243 E7.87303
G1 X137.105 Y168.897 E7.92245
G1 X136.671 Y169.561 E7.97786
G1 X136.238 Y170.05 E8.02348
G1 X135.739 Y170.463 E8.06872
G1 X135.138 Y170.836 E8.11813
G1 X134.485 Y171.096 E8.16722
G1 X133.913 Y171.239 E8.2084
G1 X133.057 Y171.387 E8.26908
G1 X131.38 Y171.629 E8.38742
G1 X130.186 Y171.762 E8.47133
G1 X129.132 Y171.857 E8.54525
G1 X127.918 Y171.929 E8.63019
G1 X126.86 Y171.974 E8.70416
G1 X125.649 Y171.989 E8.78875
G1 X124.615 Y171.984 E8.86097
G1 X123.439 Y171.941 E8.94316
G1 X122.38 Y171.885 E9.01723
G1 X121.264 Y171.792 E9.09545
G1 X120.062 Y171.67 E9.17984
G1 X118.913 Y171.516 E9.26081
G1 X117.887 Y171.361 E9.33329
G1 X116.754 Y171.155 E9.41372
G1 X115.923 Y170.987 E9.47294
G1 X115.346 Y170.818 E9.51493
G1 X114.701 Y170.531 E9.56424
G1 X114.155 Y170.168 E9.61003
G1 X113.602 Y169.673 E9.66187
G1 X113.156 Y169.112 E9.71193
G1 X112.783 Y168.426 E9.76647
G1 X112.567 Y167.855 E9.80911
G1 X112.422 Y167.103 E9.8626
G1 X112.391 Y166.663 E9.89341
G1 X112.379 Y165.872 E9.94867
G1 X112.379 Y84.028 E15.66516
G1 X112.392 Y83.29 E15.71672
G1 X112.473 Y82.554 E15.76844
G1 X112.611 Y82.01 E15.80764
G1 X112.861 Y81.407 E15.85323
G1 X113.241 Y80.772 E15.90492
G0 F6000 X113.728 Y81.126
G1 F1800 X114.152 Y80.627 E15.95065
G1 X114.656 Y80.213 E15.99621
G1 X115.136 Y79.922 E16.03542
G1 X115.73 Y79.685 E16.08009
G1 X116.087 Y79.592 E16.10585
G1 X117.001 Y79.409 E16.17096
G1 X118.557 Y79.141 E16.28124
G1 X119.758 Y78.975 E16.36592
G1 X120.66 Y78.867 E16.42937
G1 X121.963 Y78.751 E16.52074
G1 X123.002 Y78.678 E16.59349
G1 X124.174 Y78.632 E16.67542
G1 X125.247 Y78.609 E16.75038
G1 X126.441 Y78.62 E16.83378
G1 X127.483 Y78.647 E16.90658
G1 X128.582 Y78.71 E16.98347
G1 X129.674 Y78.791 E17.05995
G1 X130.904 Y78.92 E17.14633
G1 X131.884 Y79.041 E17.2153
G1 X133.053 Y79.22 E17.2979
G1 X133.761 Y79.34 E17.34806
G1 X134.352 Y79.487 E17.3906
G1 X134.949 Y79.748 E17.43611
G1 X135.425 Y80.044 E17.47526
G1 X135.849 Y80.411 E17.51443
G1 X136.276 Y80.903 E17.55993
G1 X136.609 Y81.467 E17.60567
G1 X136.824 Y81.988 E17.64504
G1 X136.967 Y82.617 E17.6901
G1 X137.01 Y83.127 E17.72584
G1 X137.021 Y83.848 E17.77621
G1 X137.021 Y166.139 E23.52393
G1 X137.011 Y166.866 E23.57471
G1 X136.946 Y167.517 E23.62041
G1 X136.82 Y168.014 E23.65622
G1 X136.571 Y168.618 E23.70185
G1 X136.218 Y169.168 E23.7475
G1 X135.851 Y169.591 E23.78661
G1 X135.422 Y169.953 E23.82582
G1 X134.867 Y170.298 E23.87146
G1 X134.263 Y170.538 E23.91686
G1 X133.811 Y170.648 E23.94935
G1 X132.971 Y170.793 E24.00889
G1 X131.314 Y171.033 E24.12583
G1 X130.132 Y171.164 E24.2089
G1 X129.096 Y171.258 E24.28155
G1 X127.893 Y171.33 E24.36573
G1 X126.853 Y171.374 E24.43844
G1 X125.652 Y171.389 E24.52233
G1 X124.637 Y171.384 E24.59322
G1 X123.471 Y171.342 E24.67472
G1 X122.43 Y171.287 E24.74753
G1 X121.325 Y171.195 E24.82497
G1 X120.141 Y171.075 E24.9081
G1 X119.002 Y170.923 E24.98836
G1 X117.994 Y170.771 E25.05956
G1 X116.872 Y170.567 E25.13921
G1 X116.085 Y170.409 E25.19528
G1 X115.59 Y170.27 E25.23119
G1 X114.993 Y170.004 E25.27684
G1 X114.487 Y169.668 E25.31926
G1 X114.041 Y169.261 E25.36143
G1 X113.659 Y168.781 E25.40428
G1 X113.344 Y168.213 E25.44965
G1 X113.145 Y167.688 E25.48886
G1 X113.02 Y167.06 E25.53359
G1 X112.991 Y166.654 E25.56201
G1 X112.979 Y165.863 E25.61727
G1 X112.979 Y84.037 E31.33251
G1 X112.989 Y83.351 E31.38043
G1 X113.055 Y82.702 E31.426
G1 X113.193 Y82.158 E31.4652
G1 X113.413 Y81.643 E31.50431
G1 X113.728 Y81.126 E31.5466
G0 F6000 X114.237 Y81.444
G1 F1800 X114.574 Y81.056 E31.58249
G1 X114.967 Y80.726 E31.61833
G1 X115.406 Y80.46 E31.65419
G1 X115.881 Y80.266 E31.69002
G1 X116.238 Y80.173 E31.71579
G1 X117.103 Y80 E31.77741
G1 X118.639 Y79.735 E31.88627
G1 X119.829 Y79.571 E31.97018
G1 X120.713 Y79.465 E32.03236
G1 X122.005 Y79.35 E32.12296
G1 X123.026 Y79.278 E32.19445
G1 X124.187 Y79.232 E32.27561
G1 X125.241 Y79.209 E32.34924
G1 X126.426 Y79.22 E32.43201
G1 X127.449 Y79.246 E32.50349
G1 X128.537 Y79.308 E32.57961
G1 X129.612 Y79.388 E32.6549
G1 X130.83 Y79.515 E32.74043
G1 X131.793 Y79.634 E32.80821
G1 X132.953 Y79.812 E32.89018
G1 X133.661 Y79.932 E32.94033
G1 X134.159 Y80.057 E32.97619
G1 X134.632 Y80.258 E33.01209
G1 X135.068 Y80.529 E33.04795
G1 X135.456 Y80.865 E33.0838
G1 X135.788 Y81.257 E33.11968
G1 X136.054 Y81.696 E33.15553
G1 X136.25 Y82.171 E33.19142
G1 X136.369 Y82.67 E33.22725
G1 X136.41 Y83.136 E33.25992
G1 X136.421 Y83.857 E33.31029
G1 X136.421 Y166.131 E39.05682
G1 X136.411 Y166.858 E39.10761
G1 X136.364 Y167.37 E39.14352
G1 X136.238 Y167.867 E39.17933
G1 X136.037 Y168.34 E39.21523
G1 X135.764 Y168.775 E39.2511
G1 X135.428 Y169.163 E39.28695
G1 X135.035 Y169.494 E39.32283
G1 X134.596 Y169.76 E39.35869
G1 X134.121 Y169.955 E39.39455
G1 X133.669 Y170.065 E39.42704
G1 X132.885 Y170.199 E39.4826
G1 X131.248 Y170.437 E39.59814
G1 X130.077 Y170.566 E39.68042
G1 X129.06 Y170.659 E39.75175
G1 X127.868 Y170.731 E39.83516
G1 X126.845 Y170.774 E39.90668
G1 X125.655 Y170.789 E39.9898
G1 X124.658 Y170.784 E40.05944
G1 X123.503 Y170.743 E40.14016
G1 X122.48 Y170.689 E40.21171
G1 X121.385 Y170.598 E40.28846
G1 X120.22 Y170.48 E40.37024
G1 X119.091 Y170.33 E40.44979
G1 X118.101 Y170.181 E40.51972
G1 X116.989 Y169.979 E40.59866
G1 X116.247 Y169.831 E40.65151
G1 X115.752 Y169.692 E40.68742
G1 X115.286 Y169.478 E40.72323
G1 X114.858 Y169.194 E40.75911
G1 X114.479 Y168.848 E40.79496
G1 X114.159 Y168.446 E40.83084
G1 X113.905 Y168 E40.86669
G1 X113.723 Y167.52 E40.90255
G1 X113.618 Y167.017 E40.93844
G1 X113.591 Y166.645 E40.96449
G1 X113.579 Y165.854 E41.01974
G1 X113.579 Y84.046 E46.73373
G1 X113.589 Y83.36 E46.78165
G1 X113.637 Y82.849 E46.8175
G1 X113.763 Y82.351 E46.85338
G1 X113.965 Y81.879 E46.88924
G1 X114.237 Y81.444 E46.92507
G1 F300 E46.42507
G1 F600 Z0.56
;MESH:test-aza-wheel-center-cap.stl
G0 F6000 X124.996 Y167.195 Z0.56
;TYPE:WALL-OUTER
G1 F600 Z0.28
G1 F120 E46.92507
G1 F1800 X122.97 Y167.12 E47.06668
G1 X121.022 Y166.957 E47.20321
G1 X118.879 Y166.666 E47.35427
G1 X117.179 Y166.353 E47.475
G1 X117.179 Y83.647 E53.25171
G1 X118.879 Y83.331 E53.37248
G1 X121.022 Y83.048 E53.52346
G1 X122.97 Y82.88 E53.66003
G1 X124.996 Y82.805 E53.80163
G1 X127.018 Y82.826 E53.94287
G1 X129.044 Y82.945 E54.08462
G1 X131.066 Y83.162 E54.22666
G1 X132.821 Y83.435 E54.35071
G1 X132.821 Y166.565 E60.15704
G1 X131.066 Y166.838 E60.28109
G1 X129.044 Y167.055 E60.42313
G1 X127.018 Y167.174 E60.56488
G1 X124.996 Y167.195 E60.70612
G0 F6000 X125.196 Y167.193
G0 X125.007 Y166.624
;TYPE:SKIN
G1 F1800 X123.008 Y166.55 E60.84584
G1 X121.161 Y166.401 E60.97526
G1 X118.912 Y166.093 E61.13381
G1 X117.75 Y165.879 E61.21634
G1 X117.749 Y84.12 E66.9269
G1 X118.912 Y83.9 E67.00957
G1 X121.241 Y83.601 E67.17358
G1 X123.008 Y83.45 E67.29745
G1 X125.007 Y83.376 E67.43717
G1 X126.995 Y83.396 E67.57603
G1 X128.994 Y83.514 E67.7159
G1 X130.995 Y83.729 E67.85646
G1 X132.251 Y83.924 E67.94524
G1 X132.251 Y166.076 E73.68325
G1 X130.995 Y166.271 E73.77203
G1 X128.994 Y166.486 E73.9126
G1 X126.995 Y166.604 E74.05246
G1 X125.007 Y166.624 E74.19132
G1 F300 E73.69132
G1 F600 Z0.56
G0 F6000 X118.049 Y164.718 Z0.56
G1 F600 Z0.28
G1 F120 E74.19132
G1 F1800 X119.153 Y165.822 E74.30037
G0 F6000 X120.136 Y165.957
G1 F1800 X118.049 Y163.869 E74.50657
G0 F6000 X118.049 Y163.021
G1 F1800 X121.12 Y166.092 E74.80992
G0 F6000 X122.046 Y166.17
G1 F1800 X118.049 Y162.172 E75.20478
G0 F6000 X118.049 Y161.324
G1 F1800 X122.969 Y166.244 E75.69077
G0 F6000 X123.853 Y166.279
G1 F1800 X118.049 Y160.475 E76.26407
G0 F6000 X118.049 Y159.627
G1 F1800 X124.734 Y166.312 E76.9244
G0 F6000 X125.587 Y166.316
G1 F1800 X118.049 Y158.778 E77.66899
G0 F6000 X118.049 Y157.93
G1 F1800 X126.427 Y166.307 E78.49649
G0 F6000 X127.254 Y166.286
G1 F1800 X118.049 Y157.081 E79.40574
G0 F6000 X118.049 Y156.233
G1 F1800 X128.055 Y166.239 E80.39411
G0 F6000 X128.857 Y166.192
G1 F1800 X118.049 Y155.384 E81.4617
G0 F6000 X118.049 Y154.536
G1 F1800 X129.628 Y166.114 E82.60539
G0 F6000 X130.394 Y166.032
G1 F1800 X118.049 Y153.687 E83.8248
G0 F6000 X118.049 Y152.839
G1 F1800 X131.151 Y165.94 E85.11894
G0 F6000 X131.886 Y165.827
G1 F1800 X118.049 Y151.99 E86.48572
G0 F6000 X118.049 Y151.141
G1 F1800 X131.951 Y165.043 E87.85893
G0 F6000 X131.951 Y164.195
G1 F1800 X118.049 Y150.293 E89.23213
G0 F6000 X118.049 Y149.444
G1 F1800 X131.951 Y163.346 E90.60534
G0 F6000 X131.951 Y162.498
G1 F1800 X118.049 Y148.596 E91.97855
G0 F6000 X118.049 Y147.747
G1 F1800 X131.951 Y161.649 E93.35175
G0 F6000 X131.951 Y160.801
G1 F1800 X118.049 Y146.899 E94.72496
G0 F6000 X118.049 Y146.05
G1 F1800 X131.951 Y159.952 E96.09816
G0 F6000 X131.951 Y159.103
G1 F1800 X118.049 Y145.202 E97.47132
G0 F6000 X118.049 Y144.353
G1 F1800 X131.951 Y158.255 E98.84452
G0 F6000 X131.951 Y157.406
G1 F1800 X118.049 Y143.505 E100.21768
G0 F6000 X118.049 Y142.656
G1 F1800 X131.951 Y156.558 E101.59089
G0 F6000 X131.951 Y155.709
G1 F1800 X118.049 Y141.808 E102.96404
G0 F6000 X118.049 Y140.959
G1 F1800 X131.951 Y154.861 E104.33725
G0 F6000 X131.951 Y154.012
G1 F1800 X118.049 Y140.111 E105.7104
G0 F6000 X118.049 Y139.262
G1 F1800 X131.951 Y153.164 E107.08361
G0 F6000 X131.951 Y152.315
G1 F1800 X118.049 Y138.414 E108.45677
G0 F6000 X118.049 Y137.565
G1 F1800 X131.951 Y151.467 E109.82997
G0 F6000 X131.951 Y150.618
G1 F1800 X118.049 Y136.716 E111.20318
G0 F6000 X118.049 Y135.868
G1 F1800 X131.951 Y149.77 E112.57638
G0 F6000 X131.951 Y148.921
G1 F1800 X118.049 Y135.019 E113.94959
G0 F6000 X118.049 Y134.171
G1 F1800 X131.951 Y148.073 E115.32279
G0 F6000 X131.951 Y147.224
G1 F1800 X118.049 Y133.322 E116.696
G0 F6000 X118.049 Y132.474
G1 F1800 X131.951 Y146.376 E118.06921
G0 F6000 X131.951 Y145.527
G1 F1800 X118.049 Y131.625 E119.44241
G0 F6000 X118.049 Y130.777
G1 F1800 X131.951 Y144.678 E120.81557
G0 F6000 X131.951 Y143.83
G1 F1800 X118.049 Y129.928 E122.18877
G0 F6000 X118.049 Y129.08
G1 F1800 X131.951 Y142.981 E123.56193
G0 F6000 X131.951 Y142.133
G1 F1800 X118.049 Y128.231 E124.93514
G0 F6000 X118.049 Y127.383
G1 F1800 X131.951 Y141.284 E126.30829
G0 F6000 X131.951 Y140.436
G1 F1800 X118.049 Y126.534 E127.6815
G0 F6000 X118.049 Y125.686
G1 F1800 X131.951 Y139.587 E129.05465
G0 F6000 X131.951 Y138.739
G1 F1800 X118.048 Y124.836 E130.42796
G0 F6000 X118.048 Y123.988
G1 F1800 X131.951 Y137.89 E131.80121
G0 F6000 X131.951 Y137.042
G1 F1800 X118.048 Y123.139 E133.17452
G0 F6000 X118.048 Y122.291
G1 F1800 X131.951 Y136.193 E134.54777
G0 F6000 X131.951 Y135.345
G1 F1800 X118.048 Y121.442 E135.92108
G0 F6000 X118.048 Y120.594
G1 F1800 X131.951 Y134.496 E137.29433
G0 F6000 X131.951 Y133.648
G1 F1800 X118.048 Y119.745 E138.66764
G0 F6000 X118.048 Y118.897
G1 F1800 X131.951 Y132.799 E140.04089
G0 F6000 X131.951 Y131.951
G1 F1800 X118.048 Y118.048 E141.4142
G0 F6000 X118.048 Y117.2
G1 F1800 X131.951 Y131.102 E142.78745
G0 F6000 X131.951 Y130.254
G1 F1800 X118.048 Y116.351 E144.16076
G0 F6000 X118.048 Y115.503
G1 F1800 X131.951 Y129.405 E145.53401
G0 F6000 X131.951 Y128.556
G1 F1800 X118.048 Y114.654 E146.90727
G0 F6000 X118.048 Y113.806
G1 F1800 X131.951 Y127.708 E148.28052
G0 F6000 X131.951 Y126.859
G1 F1800 X118.048 Y112.957 E149.65378
G0 F6000 X118.048 Y112.108
G1 F1800 X131.951 Y126.011 E151.02708
G0 F6000 X131.951 Y125.162
G1 F1800 X118.048 Y111.26 E152.40034
G0 F6000 X118.048 Y110.411
G1 F1800 X131.951 Y124.314 E153.77364
G0 F6000 X131.951 Y123.465
G1 F1800 X118.048 Y109.563 E155.14689
G0 F6000 X118.048 Y108.714
G1 F1800 X131.951 Y122.617 E156.5202
G0 F6000 X131.951 Y121.768
G1 F1800 X118.048 Y107.866 E157.89345
G0 F6000 X118.048 Y107.017
G1 F1800 X131.951 Y120.92 E159.26676
G0 F6000 X131.951 Y120.071
G1 F1800 X118.048 Y106.169 E160.64001
G0 F6000 X118.048 Y105.32
G1 F1800 X131.951 Y119.223 E162.01332
G0 F6000 X131.951 Y118.374
G1 F1800 X118.048 Y104.472 E163.38657
G0 F6000 X118.048 Y103.623
G1 F1800 X131.951 Y117.526 E164.75988
G0 F6000 X131.951 Y116.677
G1 F1800 X118.048 Y102.775 E166.13313
G0 F6000 X118.048 Y101.926
G1 F1800 X131.951 Y115.829 E167.50644
G0 F6000 X131.951 Y114.98
G1 F1800 X118.048 Y101.078 E168.87969
G0 F6000 X118.048 Y100.229
G1 F1800 X131.951 Y114.131 E170.25295
G0 F6000 X131.951 Y113.283
G1 F1800 X118.048 Y99.381 E171.6262
G0 F6000 X118.048 Y98.532
G1 F1800 X131.951 Y112.434 E172.99946
G0 F6000 X131.951 Y111.586
G1 F1800 X118.048 Y97.683 E174.37276
G0 F6000 X118.048 Y96.835
G1 F1800 X131.951 Y110.737 E175.74602
G0 F6000 X131.951 Y109.889
G1 F1800 X118.048 Y95.986 E177.11932
G0 F6000 X118.048 Y95.138
G1 F1800 X131.951 Y109.04 E178.49258
G0 F6000 X131.951 Y108.192
G1 F1800 X118.048 Y94.289 E179.86588
G0 F6000 X118.048 Y93.441
G1 F1800 X131.951 Y107.343 E181.23914
G0 F6000 X131.951 Y106.495
G1 F1800 X118.048 Y92.592 E182.61244
G0 F6000 X118.048 Y91.744
G1 F1800 X131.951 Y105.646 E183.9857
G0 F6000 X131.951 Y104.798
G1 F1800 X118.048 Y90.895 E185.359
G0 F6000 X118.048 Y90.047
G1 F1800 X131.951 Y103.949 E186.73225
G0 F6000 X131.951 Y103.101
G1 F1800 X118.048 Y89.198 E188.10556
G0 F6000 X118.048 Y88.35
G1 F1800 X131.951 Y102.252 E189.47881
G0 F6000 X131.951 Y101.404
G1 F1800 X118.048 Y87.501 E190.85212
G0 F6000 X118.048 Y86.653
G1 F1800 X131.951 Y100.555 E192.22537
G0 F6000 X131.951 Y99.707
G1 F1800 X118.048 Y85.804 E193.59868
G0 F6000 X118.048 Y84.956
G1 F1800 X131.951 Y98.858 E194.97193
G0 F6000 X131.951 Y98.009
G1 F1800 X118.268 Y84.327 E196.32346
G0 F6000 X118.982 Y84.193
G1 F1800 X131.951 Y97.161 E197.60445
G0 F6000 X131.951 Y96.312
G1 F1800 X119.734 Y84.096 E198.81117
G0 F6000 X120.485 Y83.998
G1 F1800 X131.951 Y95.464 E199.94375
G0 F6000 X131.951 Y94.615
G1 F1800 X121.238 Y83.903 E201.00191
G0 F6000 X122.019 Y83.835
G1 F1800 X131.951 Y93.767 E201.98297
G0 F6000 X131.951 Y92.918
G1 F1800 X122.801 Y83.768 E202.88678
G0 F6000 X123.608 Y83.727
G1 F1800 X131.951 Y92.07 E203.71088
G0 F6000 X131.951 Y91.221
G1 F1800 X124.426 Y83.697 E204.45413
G0 F6000 X125.256 Y83.678
G1 F1800 X131.951 Y90.373 E205.11545
G0 F6000 X131.951 Y89.524
M104 S215
G1 F1800 X126.113 Y83.687 E205.69206
G0 F6000 X126.97 Y83.695
G1 F1800 X131.951 Y88.676 E206.18408
G0 F6000 X131.951 Y87.827
G1 F1800 X127.871 Y83.748 E206.58704
G0 F6000 X128.773 Y83.801
G1 F1800 X131.951 Y86.979 E206.90095
G0 F6000 X131.951 Y86.13
G1 F1800 X129.713 Y83.893 E207.12197
G0 F6000 X130.664 Y83.995
G1 F1800 X131.951 Y85.282 E207.2491
G0 F6000 X131.951 Y84.433
G1 F1800 X131.653 Y84.135 E207.27853
G1 F300 E206.77853
G1 F600 Z0.56
;MESH:NONMESH
G0 F6000 X114.237 Y81.444 Z0.56
;TIME_ELAPSED:111.044465
;LAYER:1
M106 S63.8
M204 S2375
G0 F8250 X114.237 Y81.444 Z0.88
M204 S2000
;TYPE:SKIRT
G1 F600 Z0.6
G1 F120 E207.27853
G1 F1800 X114.574 Y81.056 E207.31955
G1 X114.967 Y80.726 E207.36052
