;FLAVOR:Marlin
;TIME:4476
;Filament used: 9.68078m
;Layer height: 0.32
;MINX:78.873
;MINY:78.864
;MINZ:0.28
;MAXX:171.146
;MAXY:171.14
;MAXZ:18.16
;TARGET_MACHINE.NAME:VORON2 250
;Generated with Cura_SteamEngine 5.6.0
M140 S60
M105
M190 S60
M104 S220
M105
M109 S220
M82 ;absolute extrusion mode
START_PRINT
G92 E0
G92 E0
G1 F300 E-0.5
;LAYER_COUNT:56
;LAYER:0
M107
M204 S2000
G1 F600 Z0.56
G0 F6000 X92.127 Y92.639 Z0.56
;TYPE:SKIRT
G1 F600 Z0.28
G1 F120 E0
G1 F1800 X93.299 Y91.495 E0.11439
G1 X94.16 Y90.695 E0.19648
G1 X95.369 Y89.649 E0.30815
G1 X96.271 Y88.909 E0.38964
G1 X97.612 Y87.884 E0.50753
G1 X98.353 Y87.345 E0.57153
G1 X99.924 Y86.284 E0.70394
G1 X100.714 Y85.781 E0.76935
G1 X102.277 Y84.858 E0.89613
G1 X103.127 Y84.385 E0.96408
G1 X104.73 Y83.564 E1.08987
G1 X105.824 Y83.04 E1.1746
G1 X106.708 Y82.647 E1.24217
G1 X108.106 Y82.074 E1.34769
G1 X109.886 Y81.418 E1.4802
G1 X110.82 Y81.102 E1.54906
G1 X112.568 Y80.577 E1.67654
G1 X113.595 Y80.297 E1.75089
G1 X114.606 Y80.05 E1.82359
G1 X116.247 Y79.702 E1.94075
G1 X117.289 Y79.513 E2.01472
G1 X119.07 Y79.246 E2.14051
G1 X120.019 Y79.132 E2.20727
G1 X121.648 Y78.988 E2.32149
G1 X123.508 Y78.892 E2.45158
G1 X124.541 Y78.865 E2.52375
G1 X125.497 Y78.864 E2.59053
G1 X127.416 Y78.925 E2.72463
G1 X128.353 Y78.983 E2.7902
G1 X130.11 Y79.146 E2.91345
G1 X131.154 Y79.273 E2.9869
G1 X132.935 Y79.548 E3.11277
G1 X133.833 Y79.713 E3.17655
G1 X135.642 Y80.104 E3.30582
G1 X136.482 Y80.31 E3.36622
G1 X138.325 Y80.825 E3.49988
G1 X139.188 Y81.094 E3.56302
G1 X140.862 Y81.672 E3.68672
G1 X141.703 Y81.989 E3.74949
G1 X143.361 Y82.674 E3.87479
G1 X143.947 Y82.93 E3.91946
G1 X144.824 Y83.341 E3.9871
G1 X146.407 Y84.127 E4.11055
G1 X147.347 Y84.638 E4.18528
G1 X148.323 Y85.192 E4.26367
G1 X148.874 Y85.517 E4.30835
G1 X149.752 Y86.066 E4.38067
G1 X151.275 Y87.069 E4.50805
G1 X152.038 Y87.616 E4.57362
G1 X153.409 Y88.641 E4.69318
G1 X154.276 Y89.342 E4.77106
G1 X155.652 Y90.51 E4.89712
G1 X156.314 Y91.116 E4.95981
G1 X157.66 Y92.405 E5.08998
G1 X158.359 Y93.128 E5.16022
G1 X159.573 Y94.44 E5.28507
G1 X160.211 Y95.186 E5.35363
G1 X161.348 Y96.574 E5.47895
G1 X161.956 Y97.377 E5.5493
G1 X162.933 Y98.726 E5.66564
G1 X163.534 Y99.625 E5.74117
G1 X164.503 Y101.151 E5.86743
G1 X165.001 Y102.004 E5.93642
G1 X165.826 Y103.493 E6.05532
G1 X166.293 Y104.414 E6.12744
G1 X167.082 Y106.066 E6.25531
G1 X167.441 Y106.898 E6.3186
G1 X168.147 Y108.64 E6.44989
G1 X168.478 Y109.556 E6.51792
G1 X169.052 Y111.256 E6.64324
G1 X169.33 Y112.204 E6.71224
G1 X169.808 Y113.972 E6.84017
G1 X170.013 Y114.867 E6.9043
G1 X170.39 Y116.682 E7.03377
G1 X170.543 Y117.595 E7.09843
G1 X170.807 Y119.415 E7.22688
G1 X170.905 Y120.34 E7.29185
G1 X171.06 Y122.196 E7.42194
G1 X171.101 Y123.081 E7.48382
G1 X171.146 Y125.001 E7.61796
G1 X171.133 Y125.884 E7.67964
G1 X171.067 Y127.709 E7.80719
G1 X170.992 Y128.711 E7.87738
G1 X170.819 Y130.496 E8.00264
G1 X170.685 Y131.478 E8.07186
G1 X170.426 Y133.123 E8.18817
G1 X170.216 Y134.191 E8.2642
G1 X169.816 Y136 E8.3936
G1 X169.58 Y136.9 E8.45859
G1 X169.087 Y138.632 E8.58437
G1 X168.766 Y139.611 E8.65633
G1 X168.172 Y141.3 E8.78138
G1 X167.833 Y142.156 E8.84569
G1 X167.112 Y143.866 E8.97531
G1 X166.708 Y144.732 E9.04205
G1 X165.924 Y146.322 E9.16587
G1 X165.423 Y147.246 E9.23929
G1 X164.593 Y148.698 E9.35611
G1 X164.026 Y149.611 E9.43117
G1 X163.043 Y151.116 E9.55673
G1 X162.495 Y151.887 E9.6228
G1 X161.862 Y152.749 E9.69749
G1 X161.398 Y153.361 E9.75114
G1 X160.832 Y154.067 E9.81434
G1 X159.623 Y155.503 E9.94545
G1 X158.966 Y156.224 E10.01358
G1 X157.73 Y157.526 E10.13897
G1 X157.03 Y158.208 E10.20723
G1 X155.718 Y159.432 E10.33256
G1 X154.954 Y160.091 E10.40303
G1 X153.561 Y161.241 E10.5292
G1 X152.877 Y161.763 E10.5893
G1 X151.939 Y162.457 E10.67079
G1 X151.343 Y162.882 E10.72192
G1 X150.59 Y163.39 E10.78537
G1 X148.994 Y164.411 E10.9177
G1 X148.237 Y164.857 E10.97907
G1 X146.588 Y165.779 E11.11103
G1 X145.76 Y166.2 E11.1759
G1 X144.114 Y166.994 E11.30355
G1 X143.19 Y167.397 E11.37396
G1 X142.221 Y167.801 E11.44729
G1 X141.283 Y168.174 E11.51779
G1 X139.684 Y168.737 E11.6362
G1 X138.316 Y169.179 E11.73661
G1 X136.907 Y169.574 E11.83882
G1 X136.262 Y169.744 E11.88541
G1 X135.357 Y169.956 E11.95033
G1 X133.519 Y170.345 E12.08155
G1 X132.568 Y170.508 E12.14894
G1 X130.878 Y170.76 E12.26829
G1 X129.816 Y170.879 E12.34293
G1 X128.79 Y170.977 E12.41492
G1 X127.792 Y171.056 E12.48484
G1 X127.343 Y171.08 E12.51625
G1 X125.932 Y171.126 E12.61485
G1 X124.831 Y171.14 E12.69176
G1 X123.155 Y171.097 E12.80886
G1 X122.074 Y171.047 E12.88445
G1 X120.341 Y170.898 E13.00594
G1 X119.251 Y170.78 E13.08251
G1 X117.636 Y170.542 E13.19653
G1 X116.414 Y170.334 E13.28311
G1 X114.863 Y170.006 E13.39384
G1 X113.764 Y169.752 E13.47262
G1 X112.55 Y169.419 E13.56055
G1 X110.82 Y168.899 E13.68672
G1 X109.871 Y168.578 E13.7567
G1 X108.089 Y167.919 E13.8894
G1 X106.97 Y167.462 E13.97383
G1 X105.889 Y166.993 E14.05613
G1 X104.796 Y166.47 E14.14076
G1 X103.013 Y165.553 E14.2808
G1 X102.339 Y165.178 E14.33468
G1 X100.601 Y164.149 E14.47575
G1 X99.914 Y163.71 E14.53269
G1 X98.337 Y162.645 E14.66561
G1 X97.599 Y162.108 E14.72936
G1 X96.18 Y161.018 E14.85433
G1 X95.355 Y160.339 E14.92896
G1 X94.053 Y159.207 E15.04947
G1 X93.349 Y158.553 E15.11658
G1 X92.128 Y157.362 E15.23572
G1 X91.319 Y156.516 E15.31748
G1 X90.227 Y155.31 E15.43111
G1 X89.445 Y154.383 E15.51582
G1 X88.455 Y153.15 E15.62627
G1 X87.787 Y152.254 E15.70433
G1 X86.833 Y150.902 E15.8199
G1 X86.15 Y149.862 E15.90681
G1 X85.422 Y148.693 E16.00299
G1 X84.748 Y147.522 E16.09736
G1 X83.996 Y146.132 E16.20775
G1 X83.456 Y145.041 E16.29277
G1 X82.839 Y143.71 E16.39524
G1 X82.311 Y142.466 E16.48963
G1 X81.815 Y141.208 E16.58408
G1 X81.331 Y139.848 E16.68491
G1 X80.906 Y138.541 E16.7809
G1 X80.534 Y137.256 E16.87434
G1 X80.167 Y135.843 E16.97631
G1 X79.873 Y134.538 E17.06974
G1 X79.598 Y133.141 E17.16919
G1 X79.369 Y131.728 E17.26917
G1 X79.206 Y130.523 E17.3541
G1 X79.05 Y129.003 E17.46083
G1 X78.95 Y127.664 E17.55461
G1 X78.89 Y126.156 E17.66002
G1 X78.873 Y124.978 E17.74231
G1 X78.906 Y123.318 E17.85828
G1 X78.962 Y122.148 E17.94009
G1 X79.074 Y120.716 E18.04042
G1 X79.225 Y119.317 E18.1387
G1 X79.444 Y117.778 E18.24728
G1 X79.621 Y116.727 E18.32172
G1 X79.883 Y115.413 E18.4153
G1 X80.17 Y114.138 E18.50659
G1 X80.544 Y112.709 E18.60976
G1 X80.939 Y111.351 E18.70854
G1 X81.34 Y110.123 E18.79877
G1 X81.781 Y108.881 E18.89082
G1 X82.332 Y107.482 E18.99584
G1 X82.893 Y106.166 E19.09577
G1 X83.475 Y104.921 E19.19176
G1 X84.008 Y103.849 E19.27538
G1 X84.798 Y102.389 E19.39132
G1 X85.432 Y101.293 E19.47976
G1 X86.201 Y100.057 E19.58143
G1 X86.841 Y99.084 E19.66278
G1 X87.746 Y97.802 E19.77238
G1 X88.471 Y96.832 E19.85697
G1 X89.502 Y95.548 E19.97198
G1 X90.244 Y94.672 E20.05217
G1 X91.329 Y93.474 E20.16506
G1 X92.127 Y92.639 E20.24573
G0 F6000 X92.561 Y93.054
G1 F1800 X93.707 Y91.935 E20.35761
G1 X94.553 Y91.149 E20.43827
G1 X95.75 Y90.113 E20.54884
G1 X96.635 Y89.386 E20.62883
G1 X97.965 Y88.369 E20.74577
G1 X98.689 Y87.842 E20.80832
G1 X100.246 Y86.79 E20.93957
G1 X101.019 Y86.298 E21.00357
G1 X102.569 Y85.382 E21.12932
G1 X103.401 Y84.919 E21.19583
G1 X104.989 Y84.105 E21.32046
G1 X106.068 Y83.588 E21.40403
G1 X106.935 Y83.202 E21.47032
G1 X108.314 Y82.637 E21.57441
G1 X110.078 Y81.986 E21.70574
G1 X110.993 Y81.677 E21.7732
G1 X112.726 Y81.156 E21.89959
G1 X113.737 Y80.88 E21.97279
G1 X114.731 Y80.637 E22.04426
G1 X116.354 Y80.292 E22.16015
G1 X117.378 Y80.106 E22.23285
G1 X119.142 Y79.842 E22.35743
G1 X120.072 Y79.73 E22.42286
G1 X121.679 Y79.587 E22.53554
G1 X123.524 Y79.492 E22.66458
G1 X124.542 Y79.465 E22.73571
G1 X125.478 Y79.464 E22.80108
G1 X127.379 Y79.524 E22.93393
G1 X128.297 Y79.58 E22.99817
G1 X130.038 Y79.742 E23.12029
G1 X131.063 Y79.866 E23.19241
G1 X132.827 Y80.138 E23.31707
G1 X133.706 Y80.299 E23.37949
G1 X135.499 Y80.687 E23.50762
G1 X136.321 Y80.888 E23.56673
G1 X138.147 Y81.398 E23.69915
G1 X138.992 Y81.661 E23.76096
G1 X140.65 Y82.233 E23.88346
G1 X141.474 Y82.544 E23.94498
G1 X143.121 Y83.224 E24.06944
G1 X143.693 Y83.474 E24.11304
G1 X144.557 Y83.878 E24.17966
G1 X146.12 Y84.654 E24.30154
G1 X147.051 Y85.16 E24.37555
G1 X148.018 Y85.709 E24.45322
G1 X148.556 Y86.026 E24.49683
G1 X149.422 Y86.567 E24.56815
G1 X150.926 Y87.557 E24.69392
G1 X151.679 Y88.096 E24.7586
G1 X153.032 Y89.108 E24.87661
G1 X153.888 Y89.799 E24.95345
G1 X155.247 Y90.953 E25.07797
G1 X155.899 Y91.549 E25.13967
G1 X157.229 Y92.822 E25.26826
G1 X157.919 Y93.536 E25.33761
G1 X159.117 Y94.83 E25.46078
G1 X159.747 Y95.566 E25.52845
G1 X160.87 Y96.936 E25.65218
G1 X161.47 Y97.729 E25.72163
G1 X162.434 Y99.06 E25.83642
G1 X163.028 Y99.947 E25.91098
G1 X163.985 Y101.453 E26.03561
G1 X164.476 Y102.295 E26.10369
G1 X165.291 Y103.764 E26.22103
G1 X165.752 Y104.673 E26.29222
G1 X166.531 Y106.304 E26.41847
G1 X166.885 Y107.124 E26.48085
G1 X167.583 Y108.844 E26.6105
G1 X167.91 Y109.748 E26.67764
G1 X168.476 Y111.425 E26.80127
G1 X168.751 Y112.361 E26.86941
G1 X169.223 Y114.106 E26.99567
G1 X169.426 Y114.989 E27.05895
G1 X169.798 Y116.781 E27.18679
G1 X169.949 Y117.681 E27.25053
G1 X170.21 Y119.478 E27.37736
G1 X170.307 Y120.39 E27.44142
G1 X170.461 Y122.224 E27.56996
G1 X170.501 Y123.095 E27.63086
G1 X170.546 Y124.992 E27.7634
G1 X170.533 Y125.862 E27.82417
G1 X170.467 Y127.687 E27.95173
G1 X170.395 Y128.653 E28.01939
G1 X170.224 Y130.415 E28.14303
G1 X170.092 Y131.385 E28.21141
G1 X169.837 Y133.007 E28.32609
G1 X169.63 Y134.062 E28.40118
G1 X169.236 Y135.848 E28.52893
G1 X169.003 Y136.736 E28.59305
G1 X168.517 Y138.445 E28.71715
G1 X168.2 Y139.412 E28.78823
G1 X167.614 Y141.079 E28.91165
G1 X167.28 Y141.923 E28.97505
G1 X166.568 Y143.613 E29.10313
G1 X166.17 Y144.467 E29.16894
G1 X165.396 Y146.036 E29.29114
G1 X164.902 Y146.948 E29.36358
G1 X164.083 Y148.382 E29.47893
G1 X163.524 Y149.283 E29.55299
G1 X162.554 Y150.768 E29.67688
G1 X162.011 Y151.532 E29.74234
G1 X161.384 Y152.387 E29.8164
G1 X160.93 Y152.986 E29.8689
G1 X160.373 Y153.681 E29.93111
G1 X159.179 Y155.099 E30.06058
G1 X158.531 Y155.811 E30.12783
G1 X157.311 Y157.096 E30.25159
G1 X156.621 Y157.769 E30.31891
G1 X155.326 Y158.978 E30.44265
G1 X154.572 Y159.628 E30.51218
G1 X153.197 Y160.764 E30.63676
G1 X152.52 Y161.281 E30.69626
G1 X151.59 Y161.969 E30.77706
G1 X151.007 Y162.385 E30.82708
G1 X150.266 Y162.885 E30.88952
G1 X148.69 Y163.894 E31.02022
G1 X147.944 Y164.333 E31.08068
G1 X146.316 Y165.244 E31.21098
G1 X145.499 Y165.66 E31.27502
G1 X143.874 Y166.444 E31.40104
G1 X142.959 Y166.843 E31.47076
G1 X141.999 Y167.243 E31.5434
G1 X141.061 Y167.616 E31.6139
G1 X139.499 Y168.166 E31.72957
G1 X138.154 Y168.601 E31.8283
G1 X136.754 Y168.994 E31.92987
G1 X136.125 Y169.16 E31.97531
G1 X135.233 Y169.369 E32.0393
G1 X133.417 Y169.754 E32.16896
G1 X132.479 Y169.915 E32.23543
G1 X130.811 Y170.164 E32.35322
G1 X129.759 Y170.282 E32.42716
G1 X128.742 Y170.379 E32.49852
G1 X127.76 Y170.457 E32.56732
G1 X127.323 Y170.48 E32.59789
G1 X125.924 Y170.526 E32.69566
G1 X124.846 Y170.54 E32.77096
G1 X123.183 Y170.498 E32.88715
G1 X122.125 Y170.449 E32.96113
G1 X120.406 Y170.302 E33.08163
G1 X119.338 Y170.186 E33.15666
G1 X117.736 Y169.95 E33.26977
G1 X116.538 Y169.747 E33.35463
G1 X114.998 Y169.421 E33.46458
G1 X113.923 Y169.173 E33.54164
G1 X112.723 Y168.844 E33.62855
G1 X110.993 Y168.324 E33.75472
G1 X110.079 Y168.015 E33.82211
G1 X108.316 Y167.364 E33.95338
G1 X107.209 Y166.912 E34.03689
G1 X106.148 Y166.452 E34.11767
G1 X105.07 Y165.936 E34.20114
G1 X103.305 Y165.029 E34.33974
G1 X102.645 Y164.662 E34.39249
G1 X100.924 Y163.643 E34.53219
G1 X100.25 Y163.213 E34.58803
G1 X98.69 Y162.16 E34.71949
G1 X97.965 Y161.632 E34.78213
G1 X96.546 Y160.542 E34.90711
G1 X95.749 Y159.886 E34.97921
G1 X94.461 Y158.767 E35.09838
G1 X93.768 Y158.124 E35.16441
G1 X92.562 Y156.947 E35.28211
G1 X91.764 Y156.113 E35.36273
G1 X90.686 Y154.923 E35.47488
G1 X89.913 Y154.007 E35.5586
G1 X88.936 Y152.791 E35.66755
G1 X88.277 Y151.908 E35.74451
G1 X87.334 Y150.572 E35.85873
G1 X86.659 Y149.545 E35.94456
G1 X85.942 Y148.393 E36.03934
G1 X85.276 Y147.237 E36.13252
G1 X84.534 Y145.865 E36.24147
G1 X84 Y144.788 E36.32543
G1 X83.391 Y143.476 E36.42646
G1 X82.869 Y142.246 E36.51979
G1 X82.38 Y141.007 E36.61282
G1 X81.902 Y139.662 E36.71252
G1 X81.477 Y138.355 E36.80852
G1 X81.115 Y137.105 E36.89941
G1 X80.752 Y135.711 E37.00003
G1 X80.462 Y134.422 E37.09231
G1 X80.19 Y133.045 E37.19035
G1 X79.964 Y131.647 E37.28926
G1 X79.803 Y130.461 E37.37286
G1 X79.648 Y128.959 E37.47832
G1 X79.55 Y127.64 E37.5707
G1 X79.49 Y126.147 E37.67507
G1 X79.473 Y124.99 E37.75589
G1 X79.505 Y123.347 E37.87067
G1 X79.56 Y122.195 E37.95122
G1 X79.671 Y120.78 E38.05036
G1 X79.819 Y119.402 E38.14716
G1 X80.036 Y117.878 E38.25468
G1 X80.21 Y116.844 E38.32792
G1 X80.468 Y115.545 E38.42042
G1 X80.75 Y114.29 E38.51026
G1 X81.12 Y112.876 E38.61235
G1 X81.509 Y111.537 E38.70974
G1 X81.906 Y110.323 E38.79895
G1 X82.339 Y109.101 E38.8895
G1 X82.884 Y107.717 E38.9934
G1 X83.437 Y106.42 E39.09188
G1 X84.012 Y105.188 E39.18684
G1 X84.536 Y104.134 E39.26905
G1 X85.317 Y102.689 E39.38378
G1 X85.941 Y101.61 E39.47084
G1 X86.702 Y100.387 E39.57145
G1 X87.331 Y99.43 E39.65144
G1 X88.227 Y98.161 E39.75994
G1 X88.939 Y97.208 E39.84303
G1 X89.96 Y95.936 E39.95695
G1 X90.689 Y95.075 E40.03575
G1 X91.763 Y93.889 E40.14751
G1 X92.561 Y93.054 E40.22818
G1 F300 E39.72818
G1 F600 Z0.56
;MESH:aza-wheel-center-cap.stl
G0 F6000 X125.01 Y165.74 Z0.56
;TYPE:WALL-INNER
G1 F600 Z0.28
G1 F120 E40.22818
G1 F1800 X127.466 Y165.666 E40.3998
G1 X129.926 Y165.442 E40.57233
G1 X132.356 Y165.073 E40.744
G1 X134.763 Y164.556 E40.91596
G1 X137.126 Y163.897 E41.0873
G1 X139.452 Y163.094 E41.25917
G1 X141.733 Y162.148 E41.43165
G1 X143.946 Y161.071 E41.60355
G1 X146.082 Y159.867 E41.77482
G1 X148.119 Y158.551 E41.9442
G1 X150.16 Y157.053 E42.12103
G1 X152.028 Y155.492 E42.29106
G1 X153.821 Y153.805 E42.46302
G1 X155.504 Y152.016 E42.63458
G1 X157.059 Y150.15 E42.80423
G1 X158.563 Y148.112 E42.98114
G1 X159.876 Y146.073 E43.15053
G1 X161.081 Y143.936 E43.32189
G1 X162.162 Y141.715 E43.49442
G1 X163.104 Y139.442 E43.66627
G1 X163.907 Y137.116 E43.83814
G1 X164.568 Y134.746 E44.00999
G1 X165.085 Y132.34 E44.18188
G1 X165.452 Y129.916 E44.35312
G1 X165.676 Y127.456 E44.52565
G1 X165.75 Y124.996 E44.69755
G1 X165.676 Y122.536 E44.86945
G1 X165.452 Y120.084 E45.04143
G1 X165.083 Y117.653 E45.21317
G1 X164.566 Y115.246 E45.38512
G1 X163.905 Y112.876 E45.55697
G1 X163.104 Y110.558 E45.72827
G1 X162.158 Y108.277 E45.90075
G1 X161.081 Y106.064 E46.07265
G1 X159.877 Y103.927 E46.24397
G1 X158.561 Y101.89 E46.41336
G1 X157.063 Y99.85 E46.59014
G1 X155.502 Y97.982 E46.76017
G1 X153.815 Y96.189 E46.93212
G1 X152.028 Y94.509 E47.10343
G1 X150.16 Y92.951 E47.27333
G1 X148.121 Y91.447 E47.4503
G1 X146.082 Y90.133 E47.61973
G1 X143.946 Y88.929 E47.79099
G1 X141.733 Y87.852 E47.96289
G1 X139.452 Y86.906 E48.13537
G1 X137.126 Y86.103 E48.30724
G1 X134.763 Y85.444 E48.47858
G1 X132.356 Y84.927 E48.65054
G1 X129.926 Y84.558 E48.82221
G1 X127.466 Y84.334 E48.99474
G1 X125.01 Y84.26 E49.16636
G1 X122.554 Y84.334 E49.33798
G1 X120.094 Y84.558 E49.51051
G1 X117.663 Y84.927 E49.68226
G1 X115.256 Y85.444 E49.85421
G1 X112.894 Y86.103 E50.02549
G1 X110.568 Y86.906 E50.19736
G1 X108.287 Y87.852 E50.36984
G1 X106.074 Y88.929 E50.54174
G1 X103.937 Y90.133 E50.71306
G1 X101.9 Y91.449 E50.88245
G1 X99.86 Y92.947 E51.05922
G1 X97.991 Y94.508 E51.22931
G1 X96.199 Y96.195 E51.40121
G1 X94.516 Y97.984 E51.57277
G1 X92.961 Y99.85 E51.74242
G1 X91.457 Y101.888 E51.91934
G1 X90.143 Y103.927 E52.08876
G1 X88.938 Y106.064 E52.26012
G1 X87.858 Y108.285 E52.43262
G1 X86.916 Y110.558 E52.60447
G1 X86.113 Y112.884 E52.77634
G1 X85.452 Y115.254 E52.94819
G1 X84.935 Y117.661 E53.12015
G1 X84.567 Y120.084 E53.29133
G1 X84.344 Y122.544 E53.46385
G1 X84.27 Y125.003 E53.63568
G1 X84.344 Y127.456 E53.80709
G1 X84.567 Y129.916 E53.97962
G1 X84.935 Y132.339 E54.1508
G1 X85.452 Y134.746 E54.32275
G1 X86.113 Y137.116 E54.49461
G1 X86.916 Y139.442 E54.66648
