;FLAVOR:Marlin
;TIME:4290
;Filament used: 8.82632m
;Layer height: 0.32
;MINX:69.767
;MINY:78.609
;MINZ:0.28
;MAXX:162.534
;MAXY:171.379
;MAXZ:20.4
;TARGET_MACHINE.NAME:VORON2 250
;Generated with Cura_SteamEngine 5.6.0
M140 S60
M105
M190 S60
M104 S220
M105
M109 S220
M82 ;absolute extrusion mode
START_PRINT
G92 E0
G92 E0
G1 F300 E-0.5
;LAYER_COUNT:63
;LAYER:0
M107
M204 S2000
G1 F600 Z0.56
G0 F6000 X84.466 Y91.108 Z0.56
;TYPE:SKIRT
G1 F600 Z0.28
G1 F120 E0
G1 F1800 X85.301 Y90.353 E0.07863
G1 X86.661 Y89.181 E0.20402
G1 X87.38 Y88.607 E0.26828
G1 X88.262 Y87.925 E0.34616
G1 X88.874 Y87.468 E0.39951
G1 X89.626 Y86.939 E0.46372
G1 X91.179 Y85.895 E0.59443
G1 X91.912 Y85.443 E0.65458
G1 X92.856 Y84.879 E0.73138
G1 X93.539 Y84.486 E0.78642
G1 X94.392 Y84.027 E0.85408
G1 X95.986 Y83.213 E0.97909
G1 X96.806 Y82.832 E1.04224
G1 X98.528 Y82.079 E1.17352
G1 X99.44 Y81.722 E1.24192
G1 X101.15 Y81.094 E1.36916
G1 X102.047 Y80.803 E1.43503
G1 X103.662 Y80.315 E1.55286
G1 X104.695 Y80.043 E1.62748
G1 X106.332 Y79.653 E1.74501
G1 X107.421 Y79.436 E1.82257
G1 X108.449 Y79.25 E1.89554
G1 X109.235 Y79.121 E1.95117
G1 X110.076 Y79.006 E2.01046
G1 X111.983 Y78.79 E2.14451
G1 X112.909 Y78.72 E2.20937
G1 X114.759 Y78.622 E2.33877
G1 X115.599 Y78.609 E2.39745
G1 X117.495 Y78.622 E2.52988
G1 X118.475 Y78.665 E2.59839
G1 X120.203 Y78.779 E2.71935
G1 X121.235 Y78.886 E2.79182
G1 X123.078 Y79.122 E2.9216
G1 X123.947 Y79.267 E2.98313
G1 X125.764 Y79.609 E3.11227
G1 X126.679 Y79.817 E3.17781
G1 X127.745 Y80.077 E3.25445
G1 X128.383 Y80.244 E3.30051
G1 X129.344 Y80.523 E3.37041
G1 X130.389 Y80.845 E3.44678
G1 X131.114 Y81.082 E3.50006
G1 X132.051 Y81.419 E3.56961
G1 X133.723 Y82.059 E3.69465
G1 X134.619 Y82.443 E3.76274
G1 X136.133 Y83.127 E3.87878
G1 X137.109 Y83.612 E3.9549
G1 X138.686 Y84.444 E4.07944
G1 X139.537 Y84.935 E4.14806
G1 X141.11 Y85.889 E4.27656
G1 X141.85 Y86.377 E4.33847
G1 X142.769 Y87.003 E4.41614
G1 X143.338 Y87.404 E4.46476
G1 X144.136 Y88.002 E4.53441
G1 X145.491 Y89.06 E4.65448
G1 X146.324 Y89.763 E4.73061
G1 X147.664 Y90.95 E4.85565
G1 X148.334 Y91.588 E4.92027
G1 X149.664 Y92.917 E5.05159
G1 X150.319 Y93.623 E5.11886
G1 X151.041 Y94.425 E5.19423
G1 X151.527 Y94.984 E5.24597
G1 X152.11 Y95.695 E5.31019
G1 X153.253 Y97.146 E5.4392
G1 X153.762 Y97.845 E5.4996
G1 X154.869 Y99.442 E5.63532
G1 X155.298 Y100.111 E5.69083
G1 X156.295 Y101.746 E5.82459
G1 X156.786 Y102.628 E5.89509
G1 X157.619 Y104.202 E6.01948
G1 X158.057 Y105.11 E6.08989
G1 X158.791 Y106.724 E6.21373
G1 X159.156 Y107.613 E6.28086
G1 X159.766 Y109.194 E6.39922
G1 X160.115 Y110.206 E6.47399
G1 X160.664 Y111.934 E6.60063
G1 X160.924 Y112.875 E6.66881
G1 X161.348 Y114.548 E6.78936
G1 X161.56 Y115.539 E6.86014
G1 X161.775 Y116.631 E6.93788
G1 X161.892 Y117.275 E6.9836
G1 X162.042 Y118.258 E7.05305
G1 X162.283 Y120.122 E7.18433
G1 X162.364 Y121.033 E7.24821
G1 X162.446 Y122.122 E7.32449
G1 X162.486 Y122.792 E7.37137
G1 X162.519 Y123.836 E7.44432
G1 X162.534 Y125.663 E7.57194
G1 X162.505 Y126.608 E7.63797
G1 X162.409 Y128.458 E7.76736
G1 X162.326 Y129.369 E7.83126
G1 X162.123 Y131.178 E7.9584
G1 X161.975 Y132.159 E8.0277
G1 X161.671 Y133.919 E8.15245
G1 X161.467 Y134.878 E8.22093
G1 X161.229 Y135.926 E8.29599
G1 X161.08 Y136.532 E8.33958
G1 X160.794 Y137.572 E8.41491
G1 X160.27 Y139.319 E8.54231
G1 X159.977 Y140.177 E8.60563
G1 X159.383 Y141.806 E8.72674
G1 X158.994 Y142.76 E8.7987
G1 X158.569 Y143.758 E8.87446
G1 X158.254 Y144.461 E8.92827
G1 X157.855 Y145.291 E8.99259
G1 X157.013 Y146.945 E9.12223
G1 X156.536 Y147.802 E9.19073
G1 X155.701 Y149.23 E9.30627
G1 X155.108 Y150.162 E9.38343
G1 X154.54 Y151.023 E9.45547
G1 X154.076 Y151.701 E9.51286
G1 X153.562 Y152.407 E9.57385
G1 X152.451 Y153.874 E9.70239
G1 X151.874 Y154.576 E9.76586
G1 X150.723 Y155.918 E9.88934
G1 X149.999 Y156.703 E9.96393
G1 X149.229 Y157.507 E10.04169
G1 X148.711 Y158.03 E10.0931
G1 X148.071 Y158.643 E10.155
G1 X146.794 Y159.816 E10.27611
G1 X145.975 Y160.514 E10.35127
G1 X144.531 Y161.684 E10.48108
G1 X143.807 Y162.227 E10.54429
G1 X142.329 Y163.287 E10.67133
G1 X141.501 Y163.832 E10.74057
G1 X139.952 Y164.807 E10.86841
G1 X139.141 Y165.275 E10.93381
G1 X137.673 Y166.083 E11.05085
G1 X136.661 Y166.592 E11.12997
G1 X135.059 Y167.35 E11.25376
G1 X134.145 Y167.74 E11.32316
G1 X132.454 Y168.419 E11.45044
G1 X131.611 Y168.721 E11.51298
G1 X129.974 Y169.271 E11.6336
G1 X128.935 Y169.576 E11.70924
G1 X127.194 Y170.046 E11.83519
G1 X126.325 Y170.245 E11.89746
G1 X124.469 Y170.627 E12.02981
G1 X123.539 Y170.782 E12.09566
G1 X121.745 Y171.04 E12.22226
G1 X120.727 Y171.146 E12.29375
G1 X118.951 Y171.294 E12.41822
G1 X118.006 Y171.336 E12.48429
G1 X116.191 Y171.379 E12.6111
G1 X115.195 Y171.364 E12.68067
G1 X113.417 Y171.298 E12.80495
G1 X112.511 Y171.23 E12.8684
G1 X110.652 Y171.052 E12.99884
G1 X109.698 Y170.923 E13.06608
G1 X108.013 Y170.66 E13.1852
G1 X107.001 Y170.463 E13.25721
G1 X105.329 Y170.099 E13.37673
G1 X104.227 Y169.815 E13.45621
G1 X102.475 Y169.318 E13.58341
G1 X101.693 Y169.065 E13.64082
G1 X99.895 Y168.438 E13.77382
G1 X99 Y168.086 E13.84099
G1 X97.984 Y167.67 E13.91768
G1 X97.31 Y167.381 E13.9689
G1 X96.492 Y167.002 E14.03187
G1 X94.819 Y166.183 E14.16197
G1 X93.961 Y165.721 E14.23003
G1 X92.381 Y164.827 E14.35683
G1 X91.569 Y164.325 E14.42351
G1 X90.17 Y163.421 E14.53985
G1 X89.279 Y162.796 E14.61587
G1 X87.786 Y161.698 E14.74531
G1 X87.133 Y161.178 E14.80362
G1 X85.64 Y159.932 E14.93944
G1 X84.941 Y159.303 E15.00512
G1 X83.592 Y158.034 E15.13448
G1 X82.947 Y157.378 E15.19874
G1 X81.773 Y156.136 E15.31811
G1 X81.054 Y155.316 E15.39428
G1 X79.954 Y154.002 E15.51397
G1 X79.36 Y153.239 E15.58151
G1 X78.653 Y152.295 E15.66389
G1 X78.227 Y151.707 E15.7146
G1 X77.703 Y150.938 E15.7796
G1 X76.776 Y149.517 E15.8981
G1 X76.197 Y148.552 E15.97671
G1 X75.383 Y147.124 E16.09151
G1 X74.87 Y146.14 E16.16902
G1 X74.08 Y144.535 E16.29397
G1 X73.67 Y143.611 E16.36457
G1 X72.974 Y141.953 E16.49017
G1 X72.654 Y141.1 E16.5538
G1 X72.28 Y140.056 E16.63126
G1 X72.043 Y139.356 E16.68288
G1 X71.753 Y138.419 E16.75139
G1 X71.285 Y136.782 E16.87031
G1 X71.039 Y135.782 E16.94224
G1 X70.662 Y134.086 E17.06359
G1 X70.479 Y133.088 E17.13445
G1 X70.3 Y132.01 E17.21078
G1 X70.195 Y131.317 E17.25974
G1 X70.072 Y130.298 E17.33143
G1 X69.895 Y128.498 E17.45776
G1 X69.834 Y127.494 E17.52801
G1 X69.77 Y125.818 E17.64516
G1 X69.767 Y124.83 E17.71417
G1 X69.807 Y122.956 E17.84509
G1 X69.867 Y121.948 E17.91562
G1 X70.013 Y120.16 E18.04092
G1 X70.123 Y119.252 E18.1048
G1 X70.382 Y117.425 E18.23369
G1 X70.533 Y116.586 E18.29323
G1 X70.915 Y114.714 E18.42668
G1 X71.154 Y113.73 E18.4974
G1 X71.577 Y112.137 E18.61253
G1 X71.901 Y111.084 E18.68948
G1 X72.47 Y109.371 E18.81555
G1 X72.815 Y108.453 E18.88405
G1 X73.476 Y106.802 E19.00826
G1 X73.891 Y105.871 E19.07946
G1 X74.651 Y104.26 E19.20387
G1 X75.066 Y103.458 E19.26695
G1 X75.959 Y101.824 E19.39701
G1 X76.4 Y101.085 E19.45711
G1 X77.418 Y99.462 E19.59093
G1 X77.93 Y98.71 E19.65447
G1 X78.599 Y97.759 E19.73568
G1 X78.941 Y97.29 E19.77623
G1 X79.621 Y96.407 E19.85407
G1 X80.746 Y95.016 E19.97902
G1 X81.391 Y94.278 E20.04748
G1 X82.596 Y92.959 E20.17227
G1 X83.293 Y92.252 E20.24161
G1 X84.466 Y91.108 E20.35605
G0 F6000 X84.868 Y91.553
G1 F1800 X85.693 Y90.807 E20.43374
G1 X87.035 Y89.65 E20.5575
G1 X87.747 Y89.082 E20.62112
G1 X88.621 Y88.406 E20.69829
G1 X89.219 Y87.959 E20.75044
G1 X89.961 Y87.437 E20.81381
G1 X91.494 Y86.406 E20.94284
G1 X92.22 Y85.958 E21.00243
G1 X93.155 Y85.399 E21.07852
G1 X93.824 Y85.014 E21.13243
G1 X94.665 Y84.561 E21.19915
G1 X96.239 Y83.757 E21.3226
G1 X97.046 Y83.382 E21.38475
G1 X98.747 Y82.638 E21.51443
G1 X99.647 Y82.285 E21.58195
G1 X101.335 Y81.665 E21.70756
G1 X102.221 Y81.377 E21.77263
G1 X103.814 Y80.895 E21.88887
G1 X104.834 Y80.627 E21.96254
G1 X106.471 Y80.237 E22.08007
G1 X107.528 Y80.026 E22.15536
G1 X108.547 Y79.842 E22.22768
G1 X109.316 Y79.715 E22.28212
G1 X110.144 Y79.602 E22.34049
G1 X112.028 Y79.388 E22.47293
G1 X112.941 Y79.319 E22.53688
G1 X114.768 Y79.222 E22.66467
G1 X115.595 Y79.209 E22.72244
G1 X117.468 Y79.221 E22.85326
G1 X118.439 Y79.264 E22.92115
G1 X119.46 Y79.325 E22.99259
G1 X120.141 Y79.376 E23.04029
G1 X121.159 Y79.481 E23.11177
G1 X122.979 Y79.714 E23.23993
G1 X123.836 Y79.857 E23.30061
G1 X125.631 Y80.194 E23.42818
G1 X126.537 Y80.4 E23.49307
G1 X127.593 Y80.657 E23.56898
G1 X128.216 Y80.82 E23.61396
G1 X129.167 Y81.096 E23.68313
G1 X130.202 Y81.415 E23.75877
G1 X130.911 Y81.647 E23.81088
G1 X131.836 Y81.979 E23.87952
G1 X133.487 Y82.611 E24.003
G1 X134.372 Y82.99 E24.07024
G1 X135.866 Y83.664 E24.18472
G1 X136.829 Y84.143 E24.25984
G1 X138.386 Y84.964 E24.38279
G1 X139.226 Y85.448 E24.4505
G1 X140.78 Y86.39 E24.57743
G1 X141.512 Y86.873 E24.63868
G1 X142.423 Y87.493 E24.71565
G1 X142.978 Y87.884 E24.76307
G1 X143.767 Y88.475 E24.83192
G1 X145.104 Y89.519 E24.9504
G1 X145.926 Y90.212 E25.0255
G1 X147.25 Y91.384 E25.149
G1 X147.91 Y92.013 E25.21268
G1 X149.224 Y93.325 E25.34238
G1 X149.873 Y94.024 E25.409
G1 X150.588 Y94.819 E25.48368
G1 X151.063 Y95.365 E25.53423
G1 X151.639 Y96.066 E25.5976
G1 X152.768 Y97.499 E25.72502
G1 X153.269 Y98.187 E25.78447
G1 X154.364 Y99.766 E25.91868
G1 X154.786 Y100.424 E25.97328
G1 X155.771 Y102.038 E26.10534
G1 X156.256 Y102.909 E26.17497
G1 X157.079 Y104.463 E26.2978
G1 X157.511 Y105.359 E26.36727
G1 X158.236 Y106.952 E26.48952
G1 X158.596 Y107.829 E26.55574
G1 X159.206 Y109.41 E26.6741
G1 X159.543 Y110.388 E26.74635
G1 X160.092 Y112.116 E26.87299
G1 X160.342 Y113.023 E26.9387
G1 X160.761 Y114.674 E27.05767
G1 X160.971 Y115.655 E27.12774
G1 X161.185 Y116.738 E27.20485
G1 X161.299 Y117.366 E27.24943
G1 X161.447 Y118.335 E27.3179
G1 X161.685 Y120.176 E27.44755
G1 X161.766 Y121.078 E27.51081
G1 X161.847 Y122.158 E27.58645
G1 X161.886 Y122.811 E27.63214
G1 X161.919 Y123.841 E27.70412
G1 X161.934 Y125.645 E27.83013
G1 X161.906 Y126.577 E27.89526
G1 X161.811 Y128.404 E28.02304
G1 X161.73 Y129.302 E28.08601
G1 X161.53 Y131.089 E28.21161
G1 X161.384 Y132.057 E28.27999
G1 X161.084 Y133.794 E28.4031
G1 X160.882 Y134.745 E28.47101
G1 X160.646 Y135.784 E28.54543
G1 X160.502 Y136.373 E28.58778
G1 X160.219 Y137.4 E28.66219
G1 X159.702 Y139.125 E28.78797
G1 X159.413 Y139.972 E28.85047
G1 X158.827 Y141.58 E28.97001
G1 X158.442 Y142.525 E29.04129
G1 X158.021 Y143.513 E29.1163
G1 X157.713 Y144.201 E29.16895
G1 X157.32 Y145.019 E29.23233
G1 X156.489 Y146.653 E29.36037
G1 X156.018 Y147.499 E29.428
G1 X155.195 Y148.908 E29.54198
G1 X154.607 Y149.832 E29.61847
G1 X154.045 Y150.684 E29.68976
G1 X153.591 Y151.348 E29.74594
G1 X153.084 Y152.045 E29.80614
G1 X151.987 Y153.493 E29.93303
G1 X151.419 Y154.185 E29.99556
G1 X150.282 Y155.511 E30.11756
G1 X149.566 Y156.288 E30.19136
G1 X148.803 Y157.085 E30.26843
G1 X148.296 Y157.597 E30.31875
G1 X147.665 Y158.201 E30.37976
G1 X146.405 Y159.359 E30.49929
G1 X145.597 Y160.048 E30.57346
G1 X144.171 Y161.204 E30.70168
G1 X143.457 Y161.739 E30.76399
G1 X141.979 Y162.799 E30.89103
G1 X141.181 Y163.324 E30.95775
G1 X139.652 Y164.287 E31.08396
G1 X138.852 Y164.749 E31.14849
G1 X137.403 Y165.547 E31.26403
G1 X136.404 Y166.05 E31.34215
G1 X134.823 Y166.798 E31.46431
G1 X133.921 Y167.183 E31.53281
G1 X132.252 Y167.854 E31.65845
G1 X131.42 Y168.152 E31.72018
G1 X129.805 Y168.695 E31.83919
G1 X128.779 Y168.997 E31.91389
G1 X127.06 Y169.461 E32.03825
G1 X126.204 Y169.657 E32.09959
G1 X124.37 Y170.035 E32.23038
G1 X123.453 Y170.188 E32.29531
G1 X121.683 Y170.443 E32.42022
G1 X120.677 Y170.548 E32.49086
G1 X118.925 Y170.695 E32.61366
G1 X117.992 Y170.736 E32.67889
G1 X116.2 Y170.779 E32.80409
G1 X115.217 Y170.764 E32.87276
G1 X113.439 Y170.698 E32.99703
G1 X112.568 Y170.633 E33.05804
G1 X110.732 Y170.457 E33.18686
G1 X109.79 Y170.33 E33.25325
G1 X108.127 Y170.071 E33.37081
G1 X107.129 Y169.877 E33.44182
G1 X105.479 Y169.518 E33.55976
G1 X104.391 Y169.238 E33.63823
G1 X102.66 Y168.747 E33.76391
G1 X101.891 Y168.498 E33.82036
G1 X100.093 Y167.871 E33.95336
G1 X99.227 Y167.531 E34.01835
G1 X98.221 Y167.119 E34.09428
G1 X97.562 Y166.836 E34.14437
G1 X96.756 Y166.463 E34.2064
G1 X95.083 Y165.644 E34.3365
G1 X94.256 Y165.199 E34.4021
G1 X92.697 Y164.317 E34.52721
G1 X91.895 Y163.821 E34.59307
G1 X90.496 Y162.917 E34.70941
G1 X89.634 Y162.313 E34.78293
G1 X88.16 Y161.229 E34.91072
G1 X87.517 Y160.717 E34.96813
G1 X86.041 Y159.486 E35.10238
G1 X85.352 Y158.866 E35.16712
G1 X84.02 Y157.613 E35.29485
G1 X83.383 Y156.966 E35.35826
G1 X82.224 Y155.74 E35.4761
G1 X81.514 Y154.931 E35.55128
G1 X80.427 Y153.633 E35.66953
G1 X79.84 Y152.879 E35.73628
G1 X79.139 Y151.943 E35.81795
G1 X78.723 Y151.369 E35.86747
G1 X78.205 Y150.61 E35.93165
G1 X77.29 Y149.208 E36.04859
G1 X76.718 Y148.255 E36.12622
G1 X75.915 Y146.847 E36.23943
G1 X75.408 Y145.875 E36.316
G1 X74.628 Y144.291 E36.43933
G1 X74.223 Y143.379 E36.50902
G1 X73.536 Y141.742 E36.63302
G1 X73.219 Y140.898 E36.69599
G1 X72.848 Y139.863 E36.77279
G1 X72.616 Y139.179 E36.82324
G1 X72.33 Y138.254 E36.89086
G1 X71.868 Y136.638 E37.00826
G1 X71.625 Y135.652 E37.07918
G1 X71.252 Y133.978 E37.19898
G1 X71.071 Y132.99 E37.26913
G1 X70.893 Y131.92 E37.34489
G1 X70.791 Y131.245 E37.39258
G1 X70.669 Y130.239 E37.46336
G1 X70.494 Y128.462 E37.58807
G1 X70.434 Y127.471 E37.65742
G1 X70.37 Y125.816 E37.7731
G1 X70.367 Y124.843 E37.84106
G1 X70.406 Y122.992 E37.97037
G1 X70.465 Y121.997 E38.03999
G1 X70.609 Y120.232 E38.16368
G1 X70.717 Y119.336 E38.22672
G1 X70.972 Y117.532 E38.35397
G1 X71.121 Y116.706 E38.4126
G1 X71.498 Y114.856 E38.54447
G1 X71.734 Y113.884 E38.61433
G1 X72.151 Y112.313 E38.72786
G1 X72.47 Y111.273 E38.80384
G1 X73.032 Y109.582 E38.9283
G1 X73.372 Y108.676 E38.99589
G1 X74.024 Y107.046 E39.11851
G1 X74.434 Y106.127 E39.1888
G1 X75.184 Y104.536 E39.31165
G1 X75.593 Y103.746 E39.37379
G1 X76.486 Y102.112 E39.50385
G1 X76.908 Y101.404 E39.56142
G1 X77.914 Y99.8 E39.69366
G1 X78.421 Y99.055 E39.7566
G1 X79.084 Y98.112 E39.83712
G1 X79.416 Y97.656 E39.87652
G1 X80.088 Y96.784 E39.95341
G1 X81.198 Y95.411 E40.07673
G1 X81.834 Y94.683 E40.14425
G1 X83.039 Y93.364 E40.26903
G1 X83.712 Y92.681 E40.336
G1 X84.868 Y91.553 E40.44882
G1 F300 E39.94882
G1 F600 Z0.56
;MESH:aza-wheel-center-cap.stl
G0 F6000 X116.15 Y167.189 Z0.56
;TYPE:WALL-OUTER
G1 F600 Z0.28
G1 F120 E40.44882
G1 F1800 X113.63 Y167.114 E40.62491
G1 X111.107 Y166.887 E40.80184
G1 X108.61 Y166.511 E40.97821
G1 X106.143 Y165.987 E41.15437
G1 X103.717 Y165.317 E41.33016
G1 X101.328 Y164.5 E41.50651
G1 X98.983 Y163.539 E41.68352
G1 X96.707 Y162.444 E41.85993
G1 X94.51 Y161.218 E42.03566
G1 X92.376 Y159.854 E42.21256
G1 X90.332 Y158.37 E42.38898
G1 X88.39 Y156.772 E42.56464
G1 X86.533 Y155.05 E42.74153
G1 X84.788 Y153.225 E42.91789
G1 X83.159 Y151.304 E43.09381
G1 X81.64 Y149.278 E43.27068
G1 X80.255 Y147.178 E43.44638
G1 X78.989 Y144.983 E43.62337
G1 X77.858 Y142.725 E43.79976
G1 X76.87 Y140.41 E43.97556
G1 X76.015 Y138.025 E44.15253
G1 X75.306 Y135.602 E44.32886
G1 X74.745 Y133.141 E44.50516
G1 X74.334 Y130.659 E44.68088
G1 X74.069 Y128.139 E44.85787
G1 X73.956 Y125.625 E45.03364
G1 X73.993 Y123.101 E45.20995
G1 X74.183 Y120.575 E45.38688
G1 X74.533 Y118.022 E45.56686
G1 X75.008 Y115.605 E45.73891
G1 X75.644 Y113.162 E45.91523
G1 X76.426 Y110.753 E46.09214
G1 X77.346 Y108.408 E46.26808
G1 X78.407 Y106.117 E46.44442
G1 X79.604 Y103.894 E46.62077
G1 X80.911 Y101.772 E46.79484
G1 X82.402 Y99.653 E46.97581
G1 X83.962 Y97.702 E47.15029
G1 X85.645 Y95.831 E47.32606
G1 X87.445 Y94.059 E47.50249
G1 X89.352 Y92.392 E47.6794
G1 X91.342 Y90.853 E47.85511
G1 X93.429 Y89.43 E48.03154
G1 X95.604 Y88.131 E48.20849
G1 X97.836 Y86.972 E48.38415
G1 X100.151 Y85.94 E48.56118
G1 X102.516 Y85.055 E48.73755
G1 X104.928 Y84.311 E48.91386
G1 X107.38 Y83.712 E49.09016
G1 X109.864 Y83.262 E49.26648
G1 X112.441 Y82.955 E49.44774
G1 X114.892 Y82.809 E49.61924
G1 X117.408 Y82.81 E49.79497
G1 X119.859 Y82.949 E49.96644
G1 X122.436 Y83.262 E50.14776
G1 X124.92 Y83.712 E50.32408
G1 X127.372 Y84.311 E50.50038
G1 X129.784 Y85.055 E50.67668
G1 X132.149 Y85.94 E50.85306
G1 X134.456 Y86.968 E51.02946
